%
(=================================================================================)
(====                 Processed for Generic LinuxCNC 3-Axis                   ====)
(=================================================================================)
(---        Absolute mode G90, Arcs Default, Metric G21, X/Y Plane G17         ---)
(---                      No Tool Compensation G40 G49                         ---)
(---------------------------------------------------------------------------------)
G90 G91.1 G21 G17 G61 G40 G49
(---------------------------------------------------------------------------------)
M6 T0
(--- Tool Set to zero, no tool specified... so the cone will be shown.         ---)
S5000 M3
G4 P2
M7
G1 F3810.0
G0 Z+20.32000
G0 X+0.00000 Y+0.00000
(---------------------------------------------------------------------------------)
G0 X+31.62216 Y-136.35263 Z+5.08000
G1 X+31.62216 Y-136.35263 Z-1.00000 F762.0
G1 X+31.56304 Y-136.39352 Z-1.00000 F3810.0
G1 X+31.53253 Y-136.47690 Z-1.00000
G1 X+31.52528 Y-136.61020 Z-1.00000
G1 X+31.55912 Y-137.05627 Z-1.00000
G1 X+31.57811 Y-137.34239 Z-1.00000
G1 X+31.57488 Y-137.56215 Z-1.00000
G1 X+31.55038 Y-137.71469 Z-1.00000
G1 X+31.50556 Y-137.79913 Z-1.00000
G1 X+31.47582 Y-137.81555 Z-1.00000
G1 X+31.44136 Y-137.81461 Z-1.00000
G1 X+31.35875 Y-137.76024 Z-1.00000
G1 X+31.25866 Y-137.63518 Z-1.00000
G1 X+31.14205 Y-137.43852 Z-1.00000
G1 X+31.03989 Y-137.28214 Z-1.00000
G1 X+30.93821 Y-137.19264 Z-1.00000
G1 X+30.88861 Y-137.17355 Z-1.00000
G1 X+30.84039 Y-137.17191 Z-1.00000
G1 X+30.79398 Y-137.18791 Z-1.00000
G1 X+30.74980 Y-137.22180 Z-1.00000
G1 X+30.71938 Y-137.27388 Z-1.00000
G1 X+30.71366 Y-137.34367 Z-1.00000
G1 X+30.73218 Y-137.43025 Z-1.00000
G1 X+30.77448 Y-137.53268 Z-1.00000
G1 X+30.92863 Y-137.78140 Z-1.00000
G1 X+31.17245 Y-138.08241 Z-1.00000
G1 X+31.42035 Y-138.33809 Z-1.00000
G1 X+31.64986 Y-138.53110 Z-1.00000
G1 X+31.83541 Y-138.64267 Z-1.00000
G1 X+31.90372 Y-138.66205 Z-1.00000
G1 X+31.95145 Y-138.65405 Z-1.00000
G1 X+31.98435 Y-138.61862 Z-1.00000
G1 X+32.01014 Y-138.55945 Z-1.00000
G1 X+32.03952 Y-138.38245 Z-1.00000
G1 X+32.03790 Y-138.14838 Z-1.00000
G1 X+32.00356 Y-137.88254 Z-1.00000
G1 X+31.95289 Y-137.55492 Z-1.00000
G1 X+31.94798 Y-137.44574 Z-1.00000
G1 X+31.95780 Y-137.36903 Z-1.00000
G1 X+31.98319 Y-137.32187 Z-1.00000
G1 X+32.02498 Y-137.30132 Z-1.00000
G1 X+32.08401 Y-137.30440 Z-1.00000
G1 X+32.16113 Y-137.32820 Z-1.00000
G1 X+32.29447 Y-137.34932 Z-1.00000
G1 X+32.43016 Y-137.32095 Z-1.00000
G1 X+32.55823 Y-137.25381 Z-1.00000
G1 X+32.66872 Y-137.15858 Z-1.00000
G1 X+32.75165 Y-137.04601 Z-1.00000
G1 X+32.79707 Y-136.92676 Z-1.00000
G1 X+32.79500 Y-136.81157 Z-1.00000
G1 X+32.77304 Y-136.75883 Z-1.00000
G1 X+32.73547 Y-136.71114 Z-1.00000
G1 X+32.62653 Y-136.63579 Z-1.00000
G1 X+32.45622 Y-136.55405 Z-1.00000
G1 X+32.24784 Y-136.47575 Z-1.00000
G1 X+32.02473 Y-136.41077 Z-1.00000
G1 X+31.71525 Y-136.34683 Z-1.00000
G1 X+31.62216 Y-136.35263 Z-1.00000
G0 X+31.62216 Y-136.35263 Z+5.08000
G0 X+29.93373 Y-139.76251 Z+5.08000
G1 X+29.93373 Y-139.76251 Z-1.00000 F762.0
G1 X+29.82959 Y-139.71754 Z-1.00000 F3810.0
G1 X+29.78218 Y-139.72743 Z-1.00000
G1 X+29.74233 Y-139.75613 Z-1.00000
G1 X+29.68494 Y-139.86438 Z-1.00000
G1 X+29.65674 Y-140.03104 Z-1.00000
G1 X+29.65703 Y-140.24484 Z-1.00000
G1 X+29.68512 Y-140.49455 Z-1.00000
G1 X+29.74033 Y-140.76892 Z-1.00000
G1 X+29.82197 Y-141.05667 Z-1.00000
G1 X+29.92934 Y-141.34657 Z-1.00000
G1 X+30.05160 Y-141.66693 Z-1.00000
G1 X+30.13580 Y-141.94283 Z-1.00000
G1 X+30.18269 Y-142.16287 Z-1.00000
G1 X+30.19304 Y-142.31563 Z-1.00000
G1 X+30.18475 Y-142.36320 Z-1.00000
G1 X+30.16761 Y-142.38969 Z-1.00000
G1 X+30.14171 Y-142.39366 Z-1.00000
G1 X+30.10714 Y-142.37366 Z-1.00000
G1 X+30.01241 Y-142.25610 Z-1.00000
G1 X+29.88418 Y-142.02560 Z-1.00000
G1 X+29.76534 Y-141.82329 Z-1.00000
G1 X+29.62400 Y-141.64116 Z-1.00000
G1 X+29.46852 Y-141.48477 Z-1.00000
G1 X+29.30722 Y-141.35968 Z-1.00000
G1 X+29.14848 Y-141.27148 Z-1.00000
G1 X+29.00063 Y-141.22571 Z-1.00000
G1 X+28.87202 Y-141.22792 Z-1.00000
G1 X+28.81755 Y-141.24878 Z-1.00000
G1 X+28.77101 Y-141.28372 Z-1.00000
G1 X+28.75791 Y-141.31364 Z-1.00000
G1 X+28.75710 Y-141.36263 Z-1.00000
G1 X+28.78921 Y-141.50752 Z-1.00000
G1 X+28.86094 Y-141.69774 Z-1.00000
G1 X+28.96590 Y-141.91267 Z-1.00000
G1 X+29.07914 Y-142.09784 Z-1.00000
G1 X+29.17342 Y-142.20706 Z-1.00000
G1 X+29.21038 Y-142.23062 Z-1.00000
G1 X+29.23890 Y-142.23207 Z-1.00000
G1 X+29.25777 Y-142.21042 Z-1.00000
G1 X+29.26575 Y-142.16460 Z-1.00000
G1 X+29.27587 Y-142.07272 Z-1.00000
G1 X+29.30297 Y-142.03664 Z-1.00000
G1 X+29.35492 Y-142.06799 Z-1.00000
G1 X+29.43956 Y-142.17844 Z-1.00000
G1 X+29.73828 Y-142.68326 Z-1.00000
G1 X+30.26192 Y-143.64433 Z-1.00000
G1 X+30.48048 Y-144.01993 Z-1.00000
G1 X+30.69056 Y-144.32750 Z-1.00000
G1 X+30.86827 Y-144.53532 Z-1.00000
G1 X+30.93753 Y-144.59192 Z-1.00000
G1 X+30.98975 Y-144.61166 Z-1.00000
G1 X+31.06420 Y-144.59512 Z-1.00000
G1 X+31.10860 Y-144.53561 Z-1.00000
G1 X+31.12022 Y-144.41835 Z-1.00000
G1 X+31.09632 Y-144.22850 Z-1.00000
G1 X+30.93107 Y-143.57178 Z-1.00000
G1 X+30.59103 Y-142.44696 Z-1.00000
G1 X+30.22290 Y-141.24252 Z-1.00000
G1 X+30.12389 Y-140.88419 Z-1.00000
G1 X+30.07899 Y-140.66718 Z-1.00000
G1 X+30.08626 Y-140.57559 Z-1.00000
G1 X+30.10885 Y-140.57184 Z-1.00000
G1 X+30.14375 Y-140.59348 Z-1.00000
G1 X+30.40165 Y-140.89401 Z-1.00000
G1 X+30.57815 Y-141.09558 Z-1.00000
G1 X+30.74846 Y-141.24648 Z-1.00000
G1 X+30.90726 Y-141.34589 Z-1.00000
G1 X+31.04918 Y-141.39294 Z-1.00000
G1 X+31.16887 Y-141.38684 Z-1.00000
G1 X+31.21871 Y-141.36359 Z-1.00000
G1 X+31.26099 Y-141.32672 Z-1.00000
G1 X+31.32018 Y-141.21176 Z-1.00000
G1 X+31.34110 Y-141.04111 Z-1.00000
G1 X+31.32392 Y-140.89465 Z-1.00000
G1 X+31.27501 Y-140.79662 Z-1.00000
G1 X+31.23990 Y-140.76715 Z-1.00000
G1 X+31.19835 Y-140.75150 Z-1.00000
G1 X+31.09792 Y-140.76385 Z-1.00000
G1 X+31.04047 Y-140.77097 Z-1.00000
G1 X+30.97026 Y-140.75513 Z-1.00000
G1 X+30.80243 Y-140.66238 Z-1.00000
G1 X+30.61623 Y-140.50125 Z-1.00000
G1 X+30.43347 Y-140.28737 Z-1.00000
G1 X+30.25548 Y-140.06612 Z-1.00000
G1 X+30.08230 Y-139.88493 Z-1.00000
G1 X+29.93373 Y-139.76251 Z-1.00000
G0 X+29.93373 Y-139.76251 Z+5.08000
G0 X-6.06530 Y-152.66330 Z+5.08000
G1 X-6.06530 Y-152.66330 Z-1.00000 F762.0
G1 X-6.02246 Y-152.79987 Z-1.00000 F3810.0
G1 X-5.96716 Y-153.08975 Z-1.00000
G1 X-5.96288 Y-153.20970 Z-1.00000
G1 X-5.98217 Y-153.20973 Z-1.00000
G1 X-6.01696 Y-153.17180 Z-1.00000
G1 X-6.13670 Y-152.98811 Z-1.00000
G1 X-6.54764 Y-152.39046 Z-1.00000
G1 X-7.21116 Y-151.48222 Z-1.00000
G1 X-8.05454 Y-150.35281 Z-1.00000
G1 X-7.09692 Y-151.29399 Z-1.00000
G1 X-6.70358 Y-151.71407 Z-1.00000
G1 X-6.37628 Y-152.12906 Z-1.00000
G1 X-6.14068 Y-152.50299 Z-1.00000
G1 X-6.06530 Y-152.66330 Z-1.00000
G0 X-6.06530 Y-152.66330 Z+5.08000
G0 X-6.53953 Y-153.11061 Z+5.08000
G1 X-6.53953 Y-153.11061 Z-1.00000 F762.0
G1 X-6.20603 Y-153.74104 Z-1.00000 F3810.0
G1 X-5.57963 Y-155.05869 Z-1.00000
G1 X-5.97971 Y-155.20094 Z-1.00000
G1 X-13.19678 Y-147.81165 Z-1.00000
G1 X-13.42190 Y-147.81165 Z-1.00000
G1 X-13.50931 Y-147.82468 Z-1.00000
G1 X-13.58090 Y-147.86017 Z-1.00000
G1 X-13.62926 Y-147.91269 Z-1.00000
G1 X-13.64703 Y-147.97682 Z-1.00000
G1 X-13.64703 Y-148.14200 Z-1.00000
G1 X-12.56468 Y-149.45168 Z-1.00000
G1 X-12.11471 Y-150.01492 Z-1.00000
G1 X-11.68968 Y-150.58038 Z-1.00000
G1 X-11.33744 Y-151.08232 Z-1.00000
G1 X-11.10585 Y-151.45500 Z-1.00000
G1 X-10.72939 Y-152.14867 Z-1.00000
G1 X-18.61617 Y-143.85872 Z-1.00000
G1 X-18.76689 Y-143.85872 Z-1.00000
G1 X-18.82541 Y-143.86725 Z-1.00000
G1 X-18.87333 Y-143.89050 Z-1.00000
G1 X-18.90571 Y-143.92490 Z-1.00000
G1 X-18.91760 Y-143.96692 Z-1.00000
G1 X-18.91760 Y-144.07510 Z-1.00000
G1 X-17.55290 Y-145.60808 Z-1.00000
G1 X-16.16928 Y-147.13481 Z-1.00000
G1 X-14.75910 Y-148.65280 Z-1.00000
G1 X-11.94113 Y-151.67046 Z-1.00000
G1 X-10.55225 Y-153.17635 Z-1.00000
G1 X-10.35847 Y-153.31464 Z-1.00000
G1 X-10.23296 Y-153.39502 Z-1.00000
G1 X-10.12670 Y-153.44426 Z-1.00000
G1 X-10.03951 Y-153.46390 Z-1.00000
G1 X-9.97120 Y-153.45552 Z-1.00000
G1 X-9.92156 Y-153.42065 Z-1.00000
G1 X-9.89040 Y-153.36089 Z-1.00000
G1 X-9.87754 Y-153.27777 Z-1.00000
G1 X-9.88278 Y-153.17285 Z-1.00000
G1 X-9.94680 Y-152.90392 Z-1.00000
G1 X-10.08090 Y-152.56654 Z-1.00000
G1 X-10.28356 Y-152.17322 Z-1.00000
G1 X-10.55323 Y-151.73643 Z-1.00000
G1 X-11.22413 Y-150.72929 Z-1.00000
G1 X-6.21175 Y-155.67685 Z-1.00000
G1 X-5.81297 Y-155.87880 Z-1.00000
G1 X-5.64875 Y-155.94783 Z-1.00000
G1 X-5.49642 Y-155.98650 Z-1.00000
G1 X-5.37295 Y-155.99208 Z-1.00000
G1 X-5.29533 Y-155.96187 Z-1.00000
G1 X-5.22872 Y-155.85692 Z-1.00000
G1 X-5.19018 Y-155.70798 Z-1.00000
G1 X-5.17895 Y-155.52127 Z-1.00000
G1 X-5.19426 Y-155.30298 Z-1.00000
G1 X-5.23537 Y-155.05931 Z-1.00000
G1 X-5.30151 Y-154.79649 Z-1.00000
G1 X-5.39193 Y-154.52071 Z-1.00000
G1 X-5.50587 Y-154.23817 Z-1.00000
G1 X-5.83528 Y-153.49278 Z-1.00000
G1 X-3.47958 Y-156.72888 Z-1.00000
G1 X-3.69893 Y-156.86444 Z-1.00000
G1 X-3.73698 Y-156.89635 Z-1.00000
G1 X-3.75956 Y-156.93849 Z-1.00000
G1 X-3.76443 Y-156.99400 Z-1.00000
G1 X-3.74936 Y-157.06601 Z-1.00000
G1 X-3.65039 Y-157.27199 Z-1.00000
G1 X-3.44471 Y-157.58144 Z-1.00000
G1 X-3.11439 Y-158.01938 Z-1.00000
G1 X-2.64150 Y-158.61081 Z-1.00000
G1 X-1.19623 Y-160.35423 Z-1.00000
G1 X-0.52182 Y-161.14455 Z-1.00000
G1 X+0.08625 Y-161.82516 Z-1.00000
G1 X+0.62685 Y-162.39505 Z-1.00000
G1 X+1.09887 Y-162.85318 Z-1.00000
G1 X+1.50120 Y-163.19852 Z-1.00000
G1 X+1.83271 Y-163.43007 Z-1.00000
G1 X+1.97156 Y-163.50284 Z-1.00000
G1 X+2.09229 Y-163.54677 Z-1.00000
G1 X+2.19476 Y-163.56175 Z-1.00000
G1 X+2.27883 Y-163.54762 Z-1.00000
G1 X+2.34544 Y-163.51428 Z-1.00000
G1 X+2.40044 Y-163.46936 Z-1.00000
G1 X+2.44371 Y-163.41223 Z-1.00000
G1 X+2.47516 Y-163.34225 Z-1.00000
G1 X+2.50213 Y-163.16129 Z-1.00000
G1 X+2.48048 Y-162.92136 Z-1.00000
G1 X+2.40936 Y-162.61740 Z-1.00000
G1 X+2.28789 Y-162.24435 Z-1.00000
G1 X+2.11521 Y-161.79715 Z-1.00000
G1 X+1.89046 Y-161.27072 Z-1.00000
G1 X+1.68619 Y-160.83498 Z-1.00000
G1 X+1.51982 Y-160.52898 Z-1.00000
G1 X+1.39628 Y-160.35146 Z-1.00000
G1 X+1.35211 Y-160.31049 Z-1.00000
G1 X+1.32048 Y-160.30118 Z-1.00000
G1 X+1.30202 Y-160.32335 Z-1.00000
G1 X+1.29735 Y-160.37685 Z-1.00000
G1 X+1.33179 Y-160.57724 Z-1.00000
G1 X+1.42874 Y-160.90106 Z-1.00000
G1 X+1.59310 Y-161.34705 Z-1.00000
G1 X+1.77075 Y-161.81834 Z-1.00000
G1 X+1.89415 Y-162.19368 Z-1.00000
G1 X+1.96321 Y-162.47377 Z-1.00000
G1 X+1.97788 Y-162.65935 Z-1.00000
G1 X+1.96479 Y-162.71692 Z-1.00000
G1 X+1.93809 Y-162.75113 Z-1.00000
G1 X+1.89775 Y-162.76207 Z-1.00000
G1 X+1.84377 Y-162.74983 Z-1.00000
G1 X+1.69487 Y-162.65616 Z-1.00000
G1 X+1.49131 Y-162.47084 Z-1.00000
G1 X+1.00615 Y-161.98567 Z-1.00000
G1 X-0.62634 Y-159.62709 Z-1.00000
G1 X-2.19398 Y-157.40062 Z-1.00000
G1 X-3.67058 Y-155.35968 Z-1.00000
G1 X-5.08234 Y-153.45085 Z-1.00000
G1 X-3.48234 Y-155.09842 Z-1.00000
G1 X-0.61176 Y-158.01089 Z-1.00000
G1 X+0.65882 Y-159.27580 Z-1.00000
G1 X+0.65882 Y-158.88358 Z-1.00000
G1 X+0.62596 Y-158.67755 Z-1.00000
G1 X+0.53647 Y-158.40651 Z-1.00000
G1 X+0.40403 Y-158.10570 Z-1.00000
G1 X+0.24231 Y-157.81032 Z-1.00000
G1 X+0.01678 Y-157.43022 Z-1.00000
G1 X-0.02099 Y-157.34154 Z-1.00000
G1 X-0.01825 Y-157.32352 Z-1.00000
G1 X+0.00000 Y-157.32343 Z-1.00000
G1 X+0.08633 Y-157.37813 Z-1.00000
G1 X+0.24455 Y-157.50787 Z-1.00000
G1 X+0.80299 Y-158.00146 Z-1.00000
G1 X+1.31892 Y-158.43097 Z-1.00000
G1 X+2.00132 Y-158.95566 Z-1.00000
G1 X+2.76135 Y-159.50912 Z-1.00000
G1 X+3.51019 Y-160.02499 Z-1.00000
G1 X+5.24020 Y-161.17632 Z-1.00000
G1 X+5.76641 Y-161.17632 Z-1.00000
G1 X+6.00234 Y-161.15430 Z-1.00000
G1 X+6.10518 Y-161.12579 Z-1.00000
G1 X+6.19836 Y-161.08481 Z-1.00000
G1 X+6.28223 Y-161.03069 Z-1.00000
G1 X+6.35709 Y-160.96278 Z-1.00000
G1 X+6.42328 Y-160.88049 Z-1.00000
G1 X+6.48112 Y-160.78314 Z-1.00000
G1 X+6.57306 Y-160.54079 Z-1.00000
G1 X+6.63550 Y-160.23064 Z-1.00000
G1 X+6.67106 Y-159.84760 Z-1.00000
G1 X+6.68234 Y-159.38660 Z-1.00000
G1 X+6.65509 Y-158.92429 Z-1.00000
G1 X+6.57621 Y-158.39119 Z-1.00000
G1 X+6.45001 Y-157.80202 Z-1.00000
G1 X+6.28080 Y-157.17151 Z-1.00000
G1 X+6.07290 Y-156.51436 Z-1.00000
G1 X+5.83061 Y-155.84529 Z-1.00000
G1 X+5.55824 Y-155.17903 Z-1.00000
G1 X+5.26011 Y-154.53029 Z-1.00000
G1 X+4.99432 Y-153.96410 Z-1.00000
G1 X+4.95104 Y-153.83534 Z-1.00000
G1 X+4.95450 Y-153.81104 Z-1.00000
G1 X+4.97571 Y-153.81400 Z-1.00000
G1 X+5.07446 Y-153.90344 Z-1.00000
G1 X+5.25344 Y-154.10707 Z-1.00000
G1 X+5.87665 Y-154.87045 Z-1.00000
G1 X+6.18017 Y-155.24692 Z-1.00000
G1 X+8.17242 Y-157.59575 Z-1.00000
G1 X+9.96204 Y-159.65671 Z-1.00000
G1 X+10.80418 Y-160.59657 Z-1.00000
G1 X+11.46708 Y-161.31339 Z-1.00000
G1 X+12.76947 Y-162.68221 Z-1.00000
G1 X+13.11413 Y-162.68221 Z-1.00000
G1 X+13.24960 Y-162.66364 Z-1.00000
G1 X+13.36367 Y-162.61308 Z-1.00000
G1 X+13.44434 Y-162.53827 Z-1.00000
G1 X+13.47963 Y-162.44691 Z-1.00000
G1 X+13.48683 Y-162.03703 Z-1.00000
G1 X+13.44516 Y-161.63524 Z-1.00000
G1 X+13.36441 Y-161.30045 Z-1.00000
G1 X+13.31243 Y-161.17661 Z-1.00000
G1 X+13.25437 Y-161.09161 Z-1.00000
G1 X+13.18756 Y-161.00853 Z-1.00000
G1 X+13.13286 Y-160.91452 Z-1.00000
G1 X+13.09590 Y-160.82111 Z-1.00000
G1 X+13.08232 Y-160.73984 Z-1.00000
G1 X+13.08232 Y-160.56689 Z-1.00000
G1 X+17.19281 Y-164.78299 Z-1.00000
G1 X+17.63168 Y-164.72083 Z-1.00000
G1 X+17.74033 Y-164.69711 Z-1.00000
G1 X+17.83546 Y-164.65831 Z-1.00000
G1 X+17.91712 Y-164.60394 Z-1.00000
G1 X+17.98531 Y-164.53352 Z-1.00000
G1 X+18.04007 Y-164.44655 Z-1.00000
G1 X+18.08143 Y-164.34254 Z-1.00000
G1 X+18.10940 Y-164.22099 Z-1.00000
G1 X+18.12402 Y-164.08144 Z-1.00000
G1 X+18.11331 Y-163.74626 Z-1.00000
G1 X+18.04950 Y-163.33308 Z-1.00000
G1 X+17.93280 Y-162.83800 Z-1.00000
G1 X+17.76343 Y-162.25703 Z-1.00000
G1 X+17.33687 Y-160.89397 Z-1.00000
G1 X+14.78587 Y-155.83357 Z-1.00000
G1 X+14.91612 Y-155.70331 Z-1.00000
G1 X+16.65749 Y-157.54570 Z-1.00000
G1 X+17.45188 Y-158.41345 Z-1.00000
G1 X+18.32755 Y-159.41418 Z-1.00000
G1 X+19.17819 Y-160.42406 Z-1.00000
G1 X+19.89747 Y-161.31929 Z-1.00000
G1 X+21.39609 Y-163.25049 Z-1.00000
G1 X+21.73708 Y-163.43297 Z-1.00000
G1 X+21.90757 Y-163.50186 Z-1.00000
G1 X+21.98332 Y-163.51318 Z-1.00000
G1 X+22.05434 Y-163.50880 Z-1.00000
G1 X+22.12181 Y-163.48851 Z-1.00000
G1 X+22.18695 Y-163.45209 Z-1.00000
G1 X+22.31496 Y-163.33002 Z-1.00000
G1 X+22.37713 Y-163.24054 Z-1.00000
G1 X+22.41966 Y-163.14064 Z-1.00000
G1 X+22.44219 Y-163.02330 Z-1.00000
G1 X+22.44434 Y-162.88153 Z-1.00000
G1 X+22.38610 Y-162.49667 Z-1.00000
G1 X+22.24199 Y-161.93002 Z-1.00000
G1 X+22.10264 Y-161.48439 Z-1.00000
G1 X+21.91648 Y-160.97308 Z-1.00000
G1 X+21.69287 Y-160.41695 Z-1.00000
G1 X+21.44118 Y-159.83685 Z-1.00000
G1 X+21.17077 Y-159.25365 Z-1.00000
G1 X+20.89100 Y-158.68820 Z-1.00000
G1 X+20.61123 Y-158.16136 Z-1.00000
G1 X+20.34081 Y-157.69398 Z-1.00000
G1 X+20.15578 Y-157.38611 Z-1.00000
G1 X+20.11269 Y-157.28932 Z-1.00000
G1 X+20.51087 Y-157.74728 Z-1.00000
G1 X+21.06219 Y-158.38313 Z-1.00000
G1 X+21.66539 Y-159.04405 Z-1.00000
G1 X+22.30554 Y-159.72279 Z-1.00000
G1 X+25.73200 Y-163.97412 Z-1.00000
G1 X+25.98162 Y-164.06992 Z-1.00000
G1 X+26.09532 Y-164.08688 Z-1.00000
G1 X+26.22039 Y-164.06227 Z-1.00000
G1 X+26.34166 Y-164.00136 Z-1.00000
G1 X+26.44395 Y-163.90939 Z-1.00000
G1 X+26.47948 Y-163.83359 Z-1.00000
G1 X+26.49199 Y-163.72168 Z-1.00000
G1 X+26.48233 Y-163.57590 Z-1.00000
G1 X+26.45138 Y-163.39842 Z-1.00000
G1 X+26.32910 Y-162.95723 Z-1.00000
G1 X+26.13209 Y-162.41566 Z-1.00000
G1 X+25.86733 Y-161.79131 Z-1.00000
G1 X+25.54179 Y-161.10178 Z-1.00000
G1 X+25.16241 Y-160.36462 Z-1.00000
G1 X+24.73618 Y-159.59744 Z-1.00000
G1 X+23.98909 Y-158.30090 Z-1.00000
G1 X+24.06314 Y-158.22687 Z-1.00000
G1 X+24.08500 Y-158.22267 Z-1.00000
G1 X+24.11889 Y-158.23943 Z-1.00000
G1 X+24.21597 Y-158.32835 Z-1.00000
G1 X+24.34070 Y-158.47891 Z-1.00000
G1 X+24.47944 Y-158.67633 Z-1.00000
G1 X+25.05854 Y-159.46077 Z-1.00000
G1 X+25.97022 Y-160.61162 Z-1.00000
G1 X+26.97299 Y-161.87657 Z-1.00000
G1 X+27.77110 Y-162.93535 Z-1.00000
G1 X+28.17767 Y-163.49055 Z-1.00000
G1 X+28.51849 Y-163.92438 Z-1.00000
G1 X+28.80071 Y-164.24208 Z-1.00000
G1 X+29.03144 Y-164.44894 Z-1.00000
G1 X+29.12974 Y-164.51245 Z-1.00000
G1 X+29.21783 Y-164.55023 Z-1.00000
G1 X+29.29663 Y-164.56294 Z-1.00000
G1 X+29.36702 Y-164.55122 Z-1.00000
G1 X+29.42989 Y-164.51576 Z-1.00000
G1 X+29.48613 Y-164.45718 Z-1.00000
G1 X+29.58229 Y-164.27339 Z-1.00000
G1 X+29.69402 Y-163.98224 Z-1.00000
G1 X+28.89658 Y-162.21722 Z-1.00000
G1 X+28.45582 Y-161.32292 Z-1.00000
G1 X+27.84522 Y-160.19272 Z-1.00000
G1 X+27.14548 Y-158.97141 Z-1.00000
G1 X+26.43730 Y-157.80380 Z-1.00000
G1 X+24.77545 Y-155.15540 Z-1.00000
G1 X+24.03535 Y-154.07175 Z-1.00000
G1 X+23.62592 Y-153.46635 Z-1.00000
G1 X+23.47424 Y-153.20827 Z-1.00000
G1 X+23.47516 Y-153.19270 Z-1.00000
G1 X+23.49124 Y-153.19531 Z-1.00000
G1 X+23.56809 Y-153.25220 Z-1.00000
G1 X+23.89522 Y-153.55281 Z-1.00000
G1 X+24.49518 Y-154.11751 Z-1.00000
G1 X+28.63320 Y-158.82338 Z-1.00000
G1 X+29.62786 Y-160.09398 Z-1.00000
G1 X+29.97919 Y-160.52151 Z-1.00000
G1 X+30.29615 Y-160.86285 Z-1.00000
G1 X+30.57841 Y-161.11778 Z-1.00000
G1 X+30.82567 Y-161.28616 Z-1.00000
G1 X+30.93607 Y-161.33783 Z-1.00000
G1 X+31.03759 Y-161.36778 Z-1.00000
G1 X+31.13020 Y-161.37602 Z-1.00000
G1 X+31.21385 Y-161.36250 Z-1.00000
G1 X+31.28851 Y-161.32719 Z-1.00000
G1 X+31.35413 Y-161.27011 Z-1.00000
G1 X+31.41067 Y-161.19121 Z-1.00000
G1 X+31.45810 Y-161.09045 Z-1.00000
G1 X+31.56328 Y-160.81635 Z-1.00000
G1 X+30.26805 Y-158.21986 Z-1.00000
G1 X+29.66177 Y-157.05835 Z-1.00000
G1 X+28.96848 Y-155.81520 Z-1.00000
G1 X+28.27368 Y-154.63939 Z-1.00000
G1 X+27.66284 Y-153.67989 Z-1.00000
G1 X+26.53871 Y-151.98846 Z-1.00000
G1 X+25.67955 Y-150.64763 Z-1.00000
G1 X+25.14396 Y-149.75136 Z-1.00000
G1 X+25.01581 Y-149.49930 Z-1.00000
G1 X+24.98985 Y-149.42743 Z-1.00000
G1 X+24.99052 Y-149.39362 Z-1.00000
G1 X+25.04935 Y-149.33478 Z-1.00000
G1 X+26.19993 Y-150.78497 Z-1.00000
G1 X+28.71340 Y-153.92928 Z-1.00000
G1 X+29.32442 Y-154.70961 Z-1.00000
G1 X+29.98060 Y-155.58192 Z-1.00000
G1 X+30.60318 Y-156.43968 Z-1.00000
G1 X+31.11342 Y-157.17633 Z-1.00000
G1 X+32.15055 Y-158.72926 Z-1.00000
G1 X+32.26347 Y-158.72638 Z-1.00000
G1 X+32.42414 Y-158.67317 Z-1.00000
G1 X+32.65186 Y-158.54927 Z-1.00000
G1 X+32.72966 Y-158.49312 Z-1.00000
G1 X+32.78384 Y-158.43369 Z-1.00000
G1 X+32.81394 Y-158.36472 Z-1.00000
G1 X+32.81950 Y-158.27997 Z-1.00000
G1 X+32.80008 Y-158.17317 Z-1.00000
G1 X+32.75521 Y-158.03809 Z-1.00000
G1 X+32.58735 Y-157.65805 Z-1.00000
G1 X+32.24739 Y-156.94104 Z-1.00000
G1 X+29.80257 Y-152.67566 Z-1.00000
G1 X+29.93170 Y-152.54654 Z-1.00000
G1 X+32.70193 Y-156.65869 Z-1.00000
G1 X+32.84553 Y-156.65869 Z-1.00000
G1 X+32.92033 Y-156.63574 Z-1.00000
G1 X+33.01785 Y-156.57324 Z-1.00000
G1 X+33.12545 Y-156.48077 Z-1.00000
G1 X+33.23050 Y-156.36783 Z-1.00000
G1 X+33.29324 Y-156.27261 Z-1.00000
G1 X+33.32999 Y-156.16110 Z-1.00000
G1 X+33.33884 Y-156.02299 Z-1.00000
G1 X+33.31791 Y-155.84802 Z-1.00000
G1 X+33.26528 Y-155.62592 Z-1.00000
G1 X+33.17904 Y-155.34641 Z-1.00000
G1 X+32.89816 Y-154.57405 Z-1.00000
G1 X+32.32442 Y-153.07111 Z-1.00000
G1 X+32.59368 Y-153.29457 Z-1.00000
G1 X+32.73355 Y-153.39102 Z-1.00000
G1 X+32.85277 Y-153.42348 Z-1.00000
G1 X+32.90894 Y-153.41573 Z-1.00000
G1 X+32.96511 Y-153.39198 Z-1.00000
G1 X+33.08435 Y-153.29662 Z-1.00000
G1 X+33.30578 Y-153.07520 Z-1.00000
G1 X+31.25462 Y-149.03517 Z-1.00000
G1 X+30.87051 Y-148.03836 Z-1.00000
G1 X+28.42346 Y-144.23709 Z-1.00000
G1 X+28.26466 Y-144.23613 Z-1.00000
G1 X+28.19523 Y-144.26547 Z-1.00000
G1 X+28.12359 Y-144.34605 Z-1.00000
G1 X+28.05817 Y-144.46556 Z-1.00000
G1 X+28.00741 Y-144.61166 Z-1.00000
G1 X+27.95607 Y-144.75783 Z-1.00000
G1 X+27.88904 Y-144.87753 Z-1.00000
G1 X+27.81502 Y-144.95842 Z-1.00000
G1 X+27.74268 Y-144.98813 Z-1.00000
G1 X+27.67836 Y-145.02155 Z-1.00000
G1 X+27.62613 Y-145.11253 Z-1.00000
G1 X+27.59135 Y-145.24721 Z-1.00000
G1 X+27.57939 Y-145.41165 Z-1.00000
G1 X+27.58238 Y-145.83519 Z-1.00000
G1 X+28.61091 Y-147.71753 Z-1.00000
G1 X+29.61721 Y-149.59988 Z-1.00000
G1 X+30.59230 Y-151.48222 Z-1.00000
G1 X+31.54516 Y-153.36458 Z-1.00000
G1 X+31.11372 Y-152.87488 Z-1.00000
G1 X+30.58784 Y-152.21249 Z-1.00000
G1 X+29.92934 Y-151.30762 Z-1.00000
G1 X+28.95459 Y-149.92503 Z-1.00000
G1 X+28.12387 Y-148.77527 Z-1.00000
G1 X+27.42481 Y-147.84340 Z-1.00000
G1 X+26.84501 Y-147.11447 Z-1.00000
G1 X+26.37207 Y-146.57355 Z-1.00000
G1 X+25.99362 Y-146.20567 Z-1.00000
G1 X+25.83595 Y-146.08195 Z-1.00000
G1 X+25.69726 Y-145.99590 Z-1.00000
G1 X+25.57599 Y-145.94563 Z-1.00000
G1 X+25.47060 Y-145.92931 Z-1.00000
G1 X+25.34801 Y-145.93782 Z-1.00000
G1 X+25.25219 Y-145.96655 Z-1.00000
G1 X+25.18548 Y-146.02025 Z-1.00000
G1 X+25.15018 Y-146.10365 Z-1.00000
G1 X+25.14862 Y-146.22153 Z-1.00000
G1 X+25.18314 Y-146.37863 Z-1.00000
G1 X+25.25604 Y-146.57971 Z-1.00000
G1 X+25.36965 Y-146.82953 Z-1.00000
G1 X+25.72831 Y-147.49437 Z-1.00000
G1 X+26.27768 Y-148.41116 Z-1.00000
G1 X+28.02293 Y-151.15282 Z-1.00000
G1 X+29.27052 Y-153.08223 Z-1.00000
G1 X+29.08228 Y-153.08223 Z-1.00000
G1 X+27.34111 Y-150.94972 Z-1.00000
G1 X+25.84882 Y-149.10242 Z-1.00000
G1 X+24.70602 Y-147.65561 Z-1.00000
G1 X+24.38317 Y-147.25989 Z-1.00000
G1 X+24.08570 Y-146.94373 Z-1.00000
G1 X+23.81550 Y-146.70808 Z-1.00000
G1 X+23.57449 Y-146.55391 Z-1.00000
G1 X+23.46553 Y-146.50768 Z-1.00000
G1 X+23.36459 Y-146.48216 Z-1.00000
G1 X+23.27190 Y-146.47751 Z-1.00000
G1 X+23.18770 Y-146.49380 Z-1.00000
G1 X+23.11224 Y-146.53120 Z-1.00000
G1 X+23.04574 Y-146.58980 Z-1.00000
G1 X+22.98846 Y-146.66972 Z-1.00000
G1 X+22.94063 Y-146.77109 Z-1.00000
G1 X+22.83430 Y-147.04817 Z-1.00000
G1 X+23.72800 Y-148.70050 Z-1.00000
G1 X+24.21320 Y-149.55264 Z-1.00000
G1 X+24.87364 Y-150.65138 Z-1.00000
G1 X+25.62252 Y-151.85493 Z-1.00000
G1 X+26.37306 Y-153.02151 Z-1.00000
G1 X+27.12195 Y-154.18875 Z-1.00000
G1 X+27.86635 Y-155.39410 Z-1.00000
G1 X+28.52016 Y-156.49551 Z-1.00000
G1 X+28.99727 Y-157.35091 Z-1.00000
G1 X+29.87013 Y-159.01163 Z-1.00000
G1 X+29.35805 Y-158.44691 Z-1.00000
G1 X+27.97590 Y-156.92508 Z-1.00000
G1 X+27.10582 Y-155.96794 Z-1.00000
G1 X+23.15289 Y-151.49889 Z-1.00000
G1 X+22.08047 Y-150.36115 Z-1.00000
G1 X+21.53470 Y-149.80296 Z-1.00000
G1 X+21.33309 Y-149.61896 Z-1.00000
G1 X+21.16995 Y-149.49217 Z-1.00000
G1 X+21.03849 Y-149.41798 Z-1.00000
G1 X+20.93192 Y-149.39175 Z-1.00000
G1 X+20.84345 Y-149.40884 Z-1.00000
G1 X+20.76630 Y-149.46465 Z-1.00000
G1 X+20.70374 Y-149.53957 Z-1.00000
G1 X+20.66440 Y-149.62080 Z-1.00000
G1 X+20.64936 Y-149.71407 Z-1.00000
G1 X+20.65973 Y-149.82498 Z-1.00000
G1 X+20.69658 Y-149.95924 Z-1.00000
G1 X+20.76102 Y-150.12251 Z-1.00000
G1 X+20.97701 Y-150.55878 Z-1.00000
G1 X+21.42947 Y-151.41167 Z-1.00000
G1 X+26.82930 Y-159.57632 Z-1.00000
G1 X+27.85876 Y-161.70953 Z-1.00000
G1 X+19.60350 Y-151.38811 Z-1.00000
G1 X+19.26055 Y-151.38811 Z-1.00000
G1 X+19.12739 Y-151.41119 Z-1.00000
G1 X+19.01834 Y-151.47403 Z-1.00000
G1 X+18.94466 Y-151.56703 Z-1.00000
G1 X+18.91760 Y-151.68060 Z-1.00000
G1 X+18.91760 Y-151.97311 Z-1.00000
G1 X+20.51225 Y-154.18285 Z-1.00000
G1 X+21.16379 Y-155.09972 Z-1.00000
G1 X+21.76944 Y-155.98140 Z-1.00000
G1 X+22.33145 Y-156.83153 Z-1.00000
G1 X+22.85206 Y-157.65373 Z-1.00000
G1 X+23.33352 Y-158.45163 Z-1.00000
G1 X+23.77806 Y-159.22884 Z-1.00000
G1 X+24.18793 Y-159.98898 Z-1.00000
G1 X+24.56536 Y-160.73572 Z-1.00000
G1 X+25.22347 Y-162.08334 Z-1.00000
G1 X+23.94796 Y-160.54749 Z-1.00000
G1 X+22.70964 Y-159.07571 Z-1.00000
G1 X+21.52353 Y-157.69398 Z-1.00000
G1 X+20.35490 Y-156.33487 Z-1.00000
G1 X+19.15862 Y-154.91751 Z-1.00000
G1 X+17.94264 Y-153.45869 Z-1.00000
G1 X+17.67128 Y-153.45869 Z-1.00000
G1 X+17.55741 Y-153.48085 Z-1.00000
G1 X+17.44798 Y-153.54115 Z-1.00000
G1 X+17.35542 Y-153.63042 Z-1.00000
G1 X+17.29218 Y-153.73941 Z-1.00000
G1 X+17.18446 Y-154.02014 Z-1.00000
G1 X+18.60174 Y-156.23354 Z-1.00000
G1 X+19.21294 Y-157.21919 Z-1.00000
G1 X+19.82938 Y-158.26669 Z-1.00000
G1 X+20.37925 Y-159.25095 Z-1.00000
G1 X+20.79072 Y-160.04680 Z-1.00000
G1 X+21.56241 Y-161.64668 Z-1.00000
G1 X+21.51059 Y-161.90439 Z-1.00000
G1 X+21.48704 Y-161.93782 Z-1.00000
G1 X+21.43966 Y-161.93359 Z-1.00000
G1 X+21.37130 Y-161.89432 Z-1.00000
G1 X+21.28482 Y-161.82262 Z-1.00000
G1 X+21.06892 Y-161.59247 Z-1.00000
G1 X+20.81479 Y-161.26414 Z-1.00000
G1 X+20.38159 Y-160.69017 Z-1.00000
G1 X+19.83494 Y-160.01331 Z-1.00000
G1 X+19.20169 Y-159.26375 Z-1.00000
G1 X+18.50867 Y-158.47169 Z-1.00000
G1 X+17.78272 Y-157.66731 Z-1.00000
G1 X+17.05066 Y-156.88081 Z-1.00000
G1 X+16.33934 Y-156.14240 Z-1.00000
G1 X+15.67558 Y-155.48222 Z-1.00000
G1 X+14.16890 Y-154.02339 Z-1.00000
G1 X+13.81384 Y-154.02339 Z-1.00000
G1 X+13.65877 Y-154.04840 Z-1.00000
G1 X+13.59776 Y-154.07961 Z-1.00000
G1 X+13.54779 Y-154.12326 Z-1.00000
G1 X+13.50889 Y-154.17932 Z-1.00000
G1 X+13.48107 Y-154.24779 Z-1.00000
G1 X+13.45879 Y-154.42178 Z-1.00000
G1 X+13.45879 Y-154.82018 Z-1.00000
G1 X+14.70139 Y-157.19826 Z-1.00000
G1 X+15.23506 Y-158.24011 Z-1.00000
G1 X+15.71894 Y-159.22614 Z-1.00000
G1 X+16.14750 Y-160.14331 Z-1.00000
G1 X+16.51522 Y-160.97864 Z-1.00000
G1 X+16.81659 Y-161.71909 Z-1.00000
G1 X+17.04608 Y-162.35170 Z-1.00000
G1 X+17.19817 Y-162.86343 Z-1.00000
G1 X+17.26733 Y-163.24130 Z-1.00000
G1 X+17.31760 Y-163.83725 Z-1.00000
G1 X+11.47571 Y-157.69398 Z-1.00000
G1 X+9.46861 Y-155.34105 Z-1.00000
G1 X+9.20488 Y-155.34105 Z-1.00000
G1 X+9.10248 Y-155.36987 Z-1.00000
G1 X+9.01862 Y-155.44835 Z-1.00000
G1 X+8.96196 Y-155.56450 Z-1.00000
G1 X+8.94115 Y-155.70634 Z-1.00000
G1 X+8.94115 Y-156.07164 Z-1.00000
G1 X+10.04598 Y-157.44751 Z-1.00000
G1 X+10.67069 Y-158.24899 Z-1.00000
G1 X+11.24591 Y-159.03073 Z-1.00000
G1 X+11.75129 Y-159.75974 Z-1.00000
G1 X+12.16651 Y-160.40303 Z-1.00000
G1 X+12.47124 Y-160.92766 Z-1.00000
G1 X+12.64516 Y-161.30061 Z-1.00000
G1 X+12.67671 Y-161.41992 Z-1.00000
G1 X+12.66793 Y-161.48895 Z-1.00000
G1 X+12.64762 Y-161.50331 Z-1.00000
G1 X+12.61628 Y-161.50357 Z-1.00000
G1 X+12.51923 Y-161.45967 Z-1.00000
G1 X+12.33260 Y-161.34433 Z-1.00000
G1 X+10.68394 Y-159.44005 Z-1.00000
G1 X+8.88778 Y-157.34427 Z-1.00000
G1 X+6.88452 Y-154.97958 Z-1.00000
G1 X+4.73377 Y-152.42340 Z-1.00000
G1 X+4.28660 Y-151.99988 Z-1.00000
G1 X+4.10639 Y-151.84618 Z-1.00000
G1 X+3.92940 Y-151.72630 Z-1.00000
G1 X+3.76202 Y-151.64160 Z-1.00000
G1 X+3.61069 Y-151.59341 Z-1.00000
G1 X+3.48181 Y-151.58307 Z-1.00000
G1 X+3.38181 Y-151.61192 Z-1.00000
G1 X+3.31710 Y-151.68129 Z-1.00000
G1 X+3.29411 Y-151.79254 Z-1.00000
G1 X+3.29411 Y-152.00874 Z-1.00000
G1 X+4.11695 Y-153.53372 Z-1.00000
G1 X+4.41368 Y-154.10072 Z-1.00000
G1 X+4.69084 Y-154.66452 Z-1.00000
G1 X+4.94752 Y-155.22183 Z-1.00000
G1 X+5.18281 Y-155.76936 Z-1.00000
G1 X+5.39581 Y-156.30386 Z-1.00000
G1 X+5.58561 Y-156.82201 Z-1.00000
G1 X+5.75131 Y-157.32053 Z-1.00000
G1 X+5.89199 Y-157.79614 Z-1.00000
G1 X+6.00674 Y-158.24556 Z-1.00000
G1 X+6.09468 Y-158.66551 Z-1.00000
G1 X+6.15487 Y-159.05269 Z-1.00000
G1 X+6.18643 Y-159.40382 Z-1.00000
G1 X+6.18843 Y-159.71564 Z-1.00000
G1 X+6.15998 Y-159.98482 Z-1.00000
G1 X+6.10017 Y-160.20810 Z-1.00000
G1 X+6.00808 Y-160.38220 Z-1.00000
G1 X+5.93218 Y-160.47818 Z-1.00000
G1 X+5.85962 Y-160.54434 Z-1.00000
G1 X+5.78084 Y-160.57944 Z-1.00000
G1 X+5.68625 Y-160.58224 Z-1.00000
G1 X+5.56629 Y-160.55148 Z-1.00000
G1 X+5.41136 Y-160.48593 Z-1.00000
G1 X+4.95834 Y-160.24542 Z-1.00000
G1 X+4.59095 Y-160.03014 Z-1.00000
G1 X+4.17731 Y-159.76817 Z-1.00000
G1 X+3.23633 Y-159.12215 Z-1.00000
G1 X+2.18553 Y-158.34322 Z-1.00000
G1 X+1.07503 Y-157.46722 Z-1.00000
G1 X+0.66097 Y-157.15329 Z-1.00000
G1 X+0.26953 Y-156.89619 Z-1.00000
G1 X-0.05519 Y-156.72249 Z-1.00000
G1 X-0.17875 Y-156.67519 Z-1.00000
G1 X-0.26908 Y-156.65869 Z-1.00000
G1 X-0.61763 Y-156.65869 Z-1.00000
G1 X-4.29900 Y-152.00955 Z-1.00000
G1 X-4.34921 Y-151.66745 Z-1.00000
G1 X-4.37324 Y-151.57297 Z-1.00000
G1 X-4.41760 Y-151.46835 Z-1.00000
G1 X-4.55694 Y-151.23866 Z-1.00000
G1 X-4.74650 Y-150.99844 Z-1.00000
G1 X-4.96553 Y-150.76772 Z-1.00000
G1 X-5.19331 Y-150.56654 Z-1.00000
G1 X-5.40909 Y-150.41496 Z-1.00000
G1 X-5.59213 Y-150.33304 Z-1.00000
G1 X-5.66489 Y-150.32445 Z-1.00000
G1 X-5.72169 Y-150.34079 Z-1.00000
G1 X-5.79760 Y-150.41594 Z-1.00000
G1 X-5.82487 Y-150.52426 Z-1.00000
G1 X-5.79968 Y-150.67352 Z-1.00000
G1 X-5.71820 Y-150.87151 Z-1.00000
G1 X-5.57659 Y-151.12596 Z-1.00000
G1 X-5.37103 Y-151.44467 Z-1.00000
G1 X-4.75271 Y-152.30591 Z-1.00000
G1 X-3.99910 Y-153.31781 Z-1.00000
G1 X-4.38898 Y-153.17635 Z-1.00000
G1 X-8.56134 Y-149.12929 Z-1.00000
G1 X-8.84537 Y-149.12929 Z-1.00000
G1 X-8.95530 Y-149.14043 Z-1.00000
G1 X-9.04468 Y-149.17076 Z-1.00000
G1 X-9.10431 Y-149.21565 Z-1.00000
G1 X-9.12503 Y-149.27046 Z-1.00000
G1 X-9.12067 Y-149.41165 Z-1.00000
G1 X-7.97655 Y-150.91753 Z-1.00000
G1 X-7.48288 Y-151.60620 Z-1.00000
G1 X-6.98451 Y-152.36810 Z-1.00000
G1 X-6.53953 Y-153.11061 Z-1.00000
G0 X-6.53953 Y-153.11061 Z+5.08000
G0 X+14.66309 Y-178.88434 Z+5.08000
G1 X+14.66309 Y-178.88434 Z-1.00000 F762.0
G1 X+14.55741 Y-178.97791 Z-1.00000 F3810.0
G1 X+14.47414 Y-179.07901 Z-1.00000
G1 X+14.41956 Y-179.18283 Z-1.00000
G1 X+14.39997 Y-179.28452 Z-1.00000
G1 X+14.41547 Y-179.31476 Z-1.00000
G1 X+14.45990 Y-179.34299 Z-1.00000
G1 X+14.62309 Y-179.39087 Z-1.00000
G1 X+14.86460 Y-179.42322 Z-1.00000
G1 X+15.15953 Y-179.43510 Z-1.00000
G1 X+15.56872 Y-179.42516 Z-1.00000
G1 X+15.69331 Y-179.40762 Z-1.00000
G1 X+15.77128 Y-179.37720 Z-1.00000
G1 X+15.80767 Y-179.33049 Z-1.00000
G1 X+15.80749 Y-179.26408 Z-1.00000
G1 X+15.71761 Y-179.05862 Z-1.00000
G1 X+15.61316 Y-178.91246 Z-1.00000
G1 X+15.47773 Y-178.79276 Z-1.00000
G1 X+15.32881 Y-178.71187 Z-1.00000
G1 X+15.18393 Y-178.68216 Z-1.00000
G1 X+15.05159 Y-178.69722 Z-1.00000
G1 X+14.91647 Y-178.73915 Z-1.00000
G1 X+14.78487 Y-178.80313 Z-1.00000
G1 X+14.66309 Y-178.88434 Z-1.00000
G0 X+14.66309 Y-178.88434 Z+5.08000
G0 X+26.48568 Y-179.25677 Z+5.08000
G1 X+26.48568 Y-179.25677 Z-1.00000 F762.0
G1 X+26.50469 Y-179.30542 Z-1.00000 F3810.0
G1 X+26.55061 Y-179.34596 Z-1.00000
G1 X+26.62410 Y-179.37865 Z-1.00000
G1 X+26.85650 Y-179.42128 Z-1.00000
G1 X+27.20730 Y-179.43510 Z-1.00000
G1 X+27.61572 Y-179.42548 Z-1.00000
G1 X+27.74203 Y-179.41020 Z-1.00000
G1 X+27.82182 Y-179.38509 Z-1.00000
G1 X+27.85913 Y-179.34799 Z-1.00000
G1 X+27.85802 Y-179.29675 Z-1.00000
G1 X+27.75674 Y-179.14323 Z-1.00000
G1 X+27.62754 Y-179.03529 Z-1.00000
G1 X+27.45850 Y-178.96162 Z-1.00000
G1 X+27.26542 Y-178.92152 Z-1.00000
G1 X+27.06412 Y-178.91429 Z-1.00000
G1 X+26.87041 Y-178.93921 Z-1.00000
G1 X+26.70009 Y-178.99557 Z-1.00000
G1 X+26.56898 Y-179.08267 Z-1.00000
G1 X+26.52307 Y-179.13753 Z-1.00000
G1 X+26.49288 Y-179.19981 Z-1.00000
G1 X+26.48568 Y-179.25677 Z-1.00000
G0 X+26.48568 Y-179.25677 Z+5.08000
G0 X+32.47051 Y-179.17360 Z+5.08000
G1 X+32.47051 Y-179.17360 Z-1.00000 F762.0
G1 X+32.48315 Y-179.23891 Z-1.00000 F3810.0
G1 X+32.52226 Y-179.29390 Z-1.00000
G1 X+32.58960 Y-179.33910 Z-1.00000
G1 X+32.68694 Y-179.37497 Z-1.00000
G1 X+32.97870 Y-179.42072 Z-1.00000
G1 X+33.41168 Y-179.43510 Z-1.00000
G1 X+34.00829 Y-179.42735 Z-1.00000
G1 X+34.17985 Y-179.40543 Z-1.00000
G1 X+34.27911 Y-179.36057 Z-1.00000
G1 X+34.30448 Y-179.32700 Z-1.00000
G1 X+34.31521 Y-179.28464 Z-1.00000
G1 X+34.29731 Y-179.16946 Z-1.00000
G1 X+34.13606 Y-178.78876 Z-1.00000
G1 X+34.00680 Y-178.55791 Z-1.00000
G1 X+33.85665 Y-178.38002 Z-1.00000
G1 X+33.69087 Y-178.25626 Z-1.00000
G1 X+33.51472 Y-178.18781 Z-1.00000
G1 X+33.33347 Y-178.17587 Z-1.00000
G1 X+33.15236 Y-178.22160 Z-1.00000
G1 X+32.97665 Y-178.32622 Z-1.00000
G1 X+32.81160 Y-178.49088 Z-1.00000
G1 X+32.67916 Y-178.67506 Z-1.00000
G1 X+32.57071 Y-178.86517 Z-1.00000
G1 X+32.49743 Y-179.03883 Z-1.00000
G1 X+32.47051 Y-179.17360 Z-1.00000
G0 X+32.47051 Y-179.17360 Z+5.08000
G0 X+37.94952 Y-178.74025 Z+5.08000
G1 X+37.94952 Y-178.74025 Z-1.00000 F762.0
G1 X+37.96815 Y-179.03299 Z-1.00000 F3810.0
G1 X+38.01677 Y-179.22922 Z-1.00000
G1 X+38.05492 Y-179.29718 Z-1.00000
G1 X+38.10369 Y-179.34825 Z-1.00000
G1 X+38.16410 Y-179.38484 Z-1.00000
G1 X+38.23719 Y-179.40936 Z-1.00000
G1 X+38.42558 Y-179.43188 Z-1.00000
G1 X+38.67715 Y-179.43510 Z-1.00000
G1 X+39.11601 Y-179.42261 Z-1.00000
G1 X+39.24689 Y-179.39291 Z-1.00000
G1 X+39.32868 Y-179.33510 Z-1.00000
G1 X+39.36886 Y-179.23979 Z-1.00000
G1 X+39.37489 Y-179.09760 Z-1.00000
G1 X+39.31439 Y-178.63510 Z-1.00000
G1 X+39.20757 Y-177.99443 Z-1.00000
G1 X+39.10366 Y-177.46149 Z-1.00000
G1 X+39.00011 Y-177.02937 Z-1.00000
G1 X+38.89443 Y-176.69124 Z-1.00000
G1 X+38.78409 Y-176.44020 Z-1.00000
G1 X+38.66657 Y-176.26939 Z-1.00000
G1 X+38.60433 Y-176.21193 Z-1.00000
G1 X+38.53934 Y-176.17195 Z-1.00000
G1 X+38.47131 Y-176.14859 Z-1.00000
G1 X+38.39991 Y-176.14099 Z-1.00000
G1 X+38.28477 Y-176.15010 Z-1.00000
G1 X+38.19459 Y-176.18692 Z-1.00000
G1 X+38.12566 Y-176.26572 Z-1.00000
G1 X+38.07423 Y-176.40073 Z-1.00000
G1 X+38.03658 Y-176.60622 Z-1.00000
G1 X+38.00899 Y-176.89644 Z-1.00000
G1 X+37.96905 Y-177.78804 Z-1.00000
G1 X+37.94952 Y-178.74025 Z-1.00000
G0 X+37.94952 Y-178.74025 Z+5.08000
G0 X+46.94603 Y-174.88214 Z+5.08000
G1 X+46.94603 Y-174.88214 Z-1.00000 F762.0
G1 X+47.27489 Y-175.67041 Z-1.00000 F3810.0
G1 X+47.59003 Y-176.37706 Z-1.00000
G1 X+47.90247 Y-177.11835 Z-1.00000
G1 X+48.17610 Y-177.80624 Z-1.00000
G1 X+48.37483 Y-178.35275 Z-1.00000
G1 X+48.58427 Y-178.93231 Z-1.00000
G1 X+48.67399 Y-179.12277 Z-1.00000
G1 X+48.76337 Y-179.25877 Z-1.00000
G1 X+48.85965 Y-179.34917 Z-1.00000
G1 X+48.97008 Y-179.40280 Z-1.00000
G1 X+49.10191 Y-179.42850 Z-1.00000
G1 X+49.26239 Y-179.43510 Z-1.00000
G1 X+49.46316 Y-179.43251 Z-1.00000
G1 X+49.61022 Y-179.41951 Z-1.00000
G1 X+49.70615 Y-179.38835 Z-1.00000
G1 X+49.75352 Y-179.33124 Z-1.00000
G1 X+49.75487 Y-179.24037 Z-1.00000
G1 X+49.71277 Y-179.10799 Z-1.00000
G1 X+49.50850 Y-178.68745 Z-1.00000
G1 X+49.22167 Y-178.04239 Z-1.00000
G1 X+48.92470 Y-177.25078 Z-1.00000
G1 X+48.75549 Y-176.79791 Z-1.00000
G1 X+48.51963 Y-176.22719 Z-1.00000
G1 X+48.24835 Y-175.61165 Z-1.00000
G1 X+47.97289 Y-175.02437 Z-1.00000
G1 X+47.69161 Y-174.39102 Z-1.00000
G1 X+47.40448 Y-173.65004 Z-1.00000
G1 X+47.14517 Y-172.89363 Z-1.00000
G1 X+46.94731 Y-172.21405 Z-1.00000
G1 X+46.59480 Y-170.91241 Z-1.00000
G1 X+46.27805 Y-169.86111 Z-1.00000
G1 X+45.98675 Y-168.98807 Z-1.00000
G1 X+44.83130 Y-166.94148 Z-1.00000
G1 X+44.37121 Y-166.16621 Z-1.00000
G1 X+43.91563 Y-165.47585 Z-1.00000
G1 X+43.46986 Y-164.87604 Z-1.00000
G1 X+43.03918 Y-164.37251 Z-1.00000
G1 X+42.62891 Y-163.97096 Z-1.00000
G1 X+42.43307 Y-163.81021 Z-1.00000
G1 X+42.24432 Y-163.67708 Z-1.00000
G1 X+42.06332 Y-163.57230 Z-1.00000
G1 X+41.89072 Y-163.49658 Z-1.00000
G1 X+41.72719 Y-163.45062 Z-1.00000
G1 X+41.57340 Y-163.43513 Z-1.00000
G1 X+41.36551 Y-163.44632 Z-1.00000
G1 X+41.22876 Y-163.48141 Z-1.00000
G1 X+41.18737 Y-163.50865 Z-1.00000
G1 X+41.16415 Y-163.54274 Z-1.00000
G1 X+41.15922 Y-163.58395 Z-1.00000
G1 X+41.17270 Y-163.63258 Z-1.00000
G1 X+41.25540 Y-163.75328 Z-1.00000
G1 X+41.41325 Y-163.90714 Z-1.00000
G1 X+41.64725 Y-164.09645 Z-1.00000
G1 X+41.95840 Y-164.32353 Z-1.00000
G1 X+42.22548 Y-164.53690 Z-1.00000
G1 X+42.50078 Y-164.80453 Z-1.00000
G1 X+42.78213 Y-165.12236 Z-1.00000
G1 X+43.06735 Y-165.48627 Z-1.00000
G1 X+43.35427 Y-165.89214 Z-1.00000
G1 X+43.64073 Y-166.33589 Z-1.00000
G1 X+43.92453 Y-166.81342 Z-1.00000
G1 X+44.20351 Y-167.32062 Z-1.00000
G1 X+44.47551 Y-167.85338 Z-1.00000
G1 X+44.73833 Y-168.40759 Z-1.00000
G1 X+44.98981 Y-168.97917 Z-1.00000
G1 X+45.22778 Y-169.56401 Z-1.00000
G1 X+45.45005 Y-170.15799 Z-1.00000
G1 X+45.65446 Y-170.75703 Z-1.00000
G1 X+45.83884 Y-171.35701 Z-1.00000
G1 X+46.00100 Y-171.95384 Z-1.00000
G1 X+46.26728 Y-172.90192 Z-1.00000
G1 X+46.59622 Y-173.91867 Z-1.00000
G1 X+46.94603 Y-174.88214 Z-1.00000
G0 X+46.94603 Y-174.88214 Z+5.08000
G0 X+50.09204 Y-170.64101 Z+5.08000
G1 X+50.09204 Y-170.64101 Z-1.00000 F762.0
G1 X+50.12408 Y-170.65849 Z-1.00000 F3810.0
G1 X+50.17098 Y-170.66365 Z-1.00000
G1 X+50.30038 Y-170.63974 Z-1.00000
G1 X+50.46231 Y-170.57478 Z-1.00000
G1 X+50.63883 Y-170.47424 Z-1.00000
G1 X+50.81576 Y-170.32451 Z-1.00000
G1 X+50.97882 Y-170.12561 Z-1.00000
G1 X+51.10991 Y-169.90347 Z-1.00000
G1 X+51.19090 Y-169.68404 Z-1.00000
G1 X+51.40973 Y-168.84689 Z-1.00000
G1 X+51.43387 Y-168.69550 Z-1.00000
G1 X+51.42368 Y-168.63858 Z-1.00000
G1 X+51.39797 Y-168.59337 Z-1.00000
G1 X+51.35622 Y-168.55925 Z-1.00000
G1 X+51.29790 Y-168.53564 Z-1.00000
G1 X+51.12955 Y-168.51749 Z-1.00000
G1 X+50.97303 Y-168.53322 Z-1.00000
G1 X+50.82634 Y-168.57608 Z-1.00000
G1 X+50.70591 Y-168.63951 Z-1.00000
G1 X+50.62821 Y-168.71698 Z-1.00000
G1 X+50.56105 Y-168.78281 Z-1.00000
G1 X+50.52222 Y-168.79283 Z-1.00000
G1 X+50.48023 Y-168.78769 Z-1.00000
G1 X+50.38786 Y-168.73225 Z-1.00000
G1 X+50.28601 Y-168.61711 Z-1.00000
G1 X+50.21503 Y-168.53488 Z-1.00000
G1 X+50.13544 Y-168.46869 Z-1.00000
G1 X+50.04895 Y-168.41808 Z-1.00000
G1 X+49.95726 Y-168.38257 Z-1.00000
G1 X+49.76506 Y-168.35490 Z-1.00000
G1 X+49.57245 Y-168.38190 Z-1.00000
G1 X+49.39301 Y-168.45970 Z-1.00000
G1 X+49.24033 Y-168.58450 Z-1.00000
G1 X+49.17827 Y-168.66331 Z-1.00000
G1 X+49.12800 Y-168.75244 Z-1.00000
G1 X+49.09122 Y-168.85141 Z-1.00000
G1 X+49.06963 Y-168.95973 Z-1.00000
G1 X+49.07034 Y-169.16225 Z-1.00000
G1 X+49.11690 Y-169.33696 Z-1.00000
G1 X+49.19941 Y-169.47739 Z-1.00000
G1 X+49.30794 Y-169.57706 Z-1.00000
G1 X+49.43260 Y-169.62953 Z-1.00000
G1 X+49.56347 Y-169.62833 Z-1.00000
G1 X+49.62814 Y-169.60558 Z-1.00000
G1 X+49.69065 Y-169.56699 Z-1.00000
G1 X+49.74976 Y-169.51173 Z-1.00000
G1 X+49.80423 Y-169.43903 Z-1.00000
G1 X+49.84428 Y-169.38580 Z-1.00000
G1 X+49.87867 Y-169.36188 Z-1.00000
G1 X+49.90754 Y-169.36755 Z-1.00000
G1 X+49.93102 Y-169.40315 Z-1.00000
G1 X+49.96228 Y-169.56531 Z-1.00000
G1 X+49.97346 Y-169.85081 Z-1.00000
G1 X+49.98372 Y-170.12184 Z-1.00000
G1 X+50.00949 Y-170.36116 Z-1.00000
G1 X+50.04689 Y-170.54286 Z-1.00000
G1 X+50.09204 Y-170.64101 Z-1.00000
G0 X+50.09204 Y-170.64101 Z+5.08000
G0 X+47.44604 Y-166.59290 Z+5.08000
G1 X+47.44604 Y-166.59290 Z-1.00000 F762.0
G1 X+47.52329 Y-166.51566 Z-1.00000 F3810.0
G1 X+45.17636 Y-161.86577 Z-1.00000
G1 X+44.83593 Y-161.66222 Z-1.00000
G1 X+44.66000 Y-161.57843 Z-1.00000
G1 X+44.58567 Y-161.56340 Z-1.00000
G1 X+44.51742 Y-161.56688 Z-1.00000
G1 X+44.45301 Y-161.58931 Z-1.00000
G1 X+44.39020 Y-161.63110 Z-1.00000
G1 X+44.26034 Y-161.77460 Z-1.00000
G1 X+44.12831 Y-161.92703 Z-1.00000
G1 X+44.07660 Y-161.95522 Z-1.00000
G1 X+44.02964 Y-161.94885 Z-1.00000
G1 X+43.98382 Y-161.90604 Z-1.00000
G1 X+43.93555 Y-161.82484 Z-1.00000
G1 X+43.81729 Y-161.53972 Z-1.00000
G1 X+43.71741 Y-161.32176 Z-1.00000
G1 X+43.59872 Y-161.14035 Z-1.00000
G1 X+43.46614 Y-160.99815 Z-1.00000
G1 X+43.32460 Y-160.89784 Z-1.00000
G1 X+43.17902 Y-160.84210 Z-1.00000
G1 X+43.03430 Y-160.83360 Z-1.00000
G1 X+42.89539 Y-160.87502 Z-1.00000
G1 X+42.76719 Y-160.96902 Z-1.00000
G1 X+42.72673 Y-161.02942 Z-1.00000
G1 X+42.70541 Y-161.10921 Z-1.00000
G1 X+42.70256 Y-161.20711 Z-1.00000
G1 X+42.71753 Y-161.32178 Z-1.00000
G1 X+42.79828 Y-161.59621 Z-1.00000
G1 X+42.94241 Y-161.92198 Z-1.00000
G1 X+43.14465 Y-162.28860 Z-1.00000
G1 X+43.39973 Y-162.68553 Z-1.00000
G1 X+43.70242 Y-163.10225 Z-1.00000
G1 X+44.04742 Y-163.52826 Z-1.00000
G1 X+44.31404 Y-163.81276 Z-1.00000
G1 X+44.54473 Y-164.00427 Z-1.00000
G1 X+44.73423 Y-164.10431 Z-1.00000
G1 X+44.81187 Y-164.12050 Z-1.00000
G1 X+44.87725 Y-164.11440 Z-1.00000
G1 X+44.92970 Y-164.08621 Z-1.00000
G1 X+44.96856 Y-164.03610 Z-1.00000
G1 X+44.99316 Y-163.96428 Z-1.00000
G1 X+45.00286 Y-163.87093 Z-1.00000
G1 X+44.97492 Y-163.62041 Z-1.00000
G1 X+44.87946 Y-163.28609 Z-1.00000
G1 X+44.80588 Y-163.03583 Z-1.00000
G1 X+44.75909 Y-162.79495 Z-1.00000
G1 X+44.74297 Y-162.59084 Z-1.00000
G1 X+44.76139 Y-162.45091 Z-1.00000
G1 X+44.85104 Y-162.21161 Z-1.00000
G1 X+45.51070 Y-163.62337 Z-1.00000
G1 X+45.81412 Y-164.23604 Z-1.00000
G1 X+46.15261 Y-164.86058 Z-1.00000
G1 X+46.48486 Y-165.42383 Z-1.00000
G1 X+46.76958 Y-165.85265 Z-1.00000
G1 X+47.00834 Y-166.16397 Z-1.00000
G1 X+47.21546 Y-166.40732 Z-1.00000
G1 X+47.36876 Y-166.55840 Z-1.00000
G1 X+47.41829 Y-166.59174 Z-1.00000
G1 X+47.44604 Y-166.59290 Z-1.00000
G0 X+47.44604 Y-166.59290 Z+5.08000
G0 X-15.35344 Y-149.07953 Z+5.08000
G1 X-15.35344 Y-149.07953 Z-1.00000 F762.0
G1 X-15.34114 Y-149.03517 Z-1.00000 F3810.0
G1 X-15.34114 Y-148.94106 Z-1.00000
G1 X-20.89407 Y-142.98859 Z-1.00000
G1 X-22.75861 Y-140.98177 Z-1.00000
G1 X-22.87402 Y-141.32800 Z-1.00000
G1 X-21.32936 Y-143.11101 Z-1.00000
G1 X-19.92509 Y-144.70201 Z-1.00000
G1 X-18.71797 Y-146.02342 Z-1.00000
G1 X-16.65212 Y-148.24010 Z-1.00000
G1 X-15.65302 Y-149.32736 Z-1.00000
G1 X-15.49708 Y-149.22833 Z-1.00000
G1 X-15.38695 Y-149.13074 Z-1.00000
G1 X-15.35344 Y-149.07953 Z-1.00000
G0 X-15.35344 Y-149.07953 Z+5.08000
G0 X-21.97250 Y-143.70580 Z+5.08000
G1 X-21.97250 Y-143.70580 Z-1.00000 F762.0
G1 X-21.97366 Y-143.62202 Z-1.00000 F3810.0
G1 X-22.01796 Y-143.51746 Z-1.00000
G1 X-22.09777 Y-143.40540 Z-1.00000
G1 X-22.20544 Y-143.29921 Z-1.00000
G1 X-22.32017 Y-143.21829 Z-1.00000
G1 X-22.40614 Y-143.18509 Z-1.00000
G1 X-22.46234 Y-143.19339 Z-1.00000
G1 X-22.48774 Y-143.23700 Z-1.00000
G1 X-22.48134 Y-143.30966 Z-1.00000
G1 X-22.44211 Y-143.40518 Z-1.00000
G1 X-22.36905 Y-143.51733 Z-1.00000
G1 X-22.26112 Y-143.63989 Z-1.00000
G1 X-22.16628 Y-143.71716 Z-1.00000
G1 X-22.08025 Y-143.75534 Z-1.00000
G1 X-22.01250 Y-143.75227 Z-1.00000
G1 X-21.97250 Y-143.70580 Z-1.00000
G0 X-21.97250 Y-143.70580 Z+5.08000
G0 X-22.53066 Y-143.05415 Z+5.08000
G1 X-22.53066 Y-143.05415 Z-1.00000 F762.0
G1 X-22.50287 Y-142.99518 Z-1.00000 F3810.0
G1 X-22.50602 Y-142.91904 Z-1.00000
G1 X-22.53929 Y-142.82945 Z-1.00000
G1 X-22.60186 Y-142.73012 Z-1.00000
G1 X-22.69292 Y-142.62476 Z-1.00000
G1 X-22.81166 Y-142.51706 Z-1.00000
G1 X-22.97503 Y-142.39195 Z-1.00000
G1 X-23.02410 Y-142.36446 Z-1.00000
G1 X-23.05332 Y-142.36119 Z-1.00000
G1 X-23.06409 Y-142.38281 Z-1.00000
G1 X-23.05784 Y-142.42999 Z-1.00000
G1 X-22.99989 Y-142.60353 Z-1.00000
G1 X-22.90853 Y-142.87018 Z-1.00000
G1 X-22.87053 Y-143.02705 Z-1.00000
G1 X-22.85568 Y-143.05762 Z-1.00000
G1 X-22.81524 Y-143.08266 Z-1.00000
G1 X-22.68230 Y-143.10577 Z-1.00000
G1 X-22.59019 Y-143.09225 Z-1.00000
G1 X-22.53066 Y-143.05415 Z-1.00000
G0 X-22.53066 Y-143.05415 Z+5.08000
G0 X-23.20240 Y-142.37097 Z+5.08000
G1 X-23.20240 Y-142.37097 Z-1.00000 F762.0
G1 X-23.01416 Y-142.18274 Z-1.00000 F3810.0
G1 X-24.80645 Y-140.08484 Z-1.00000
G1 X-24.99469 Y-140.27309 Z-1.00000
G1 X-23.20240 Y-142.37097 Z-1.00000
G0 X-23.20240 Y-142.37097 Z+5.08000
G0 X-24.98273 Y-140.01015 Z+5.08000
G1 X-24.98273 Y-140.01015 Z-1.00000 F762.0
G1 X-24.97436 Y-139.97743 Z-1.00000 F3810.0
G1 X-24.98689 Y-139.92024 Z-1.00000
G1 X-25.06779 Y-139.74501 Z-1.00000
G1 X-25.21160 Y-139.50975 Z-1.00000
G1 X-25.40446 Y-139.23973 Z-1.00000
G1 X-25.61218 Y-138.98456 Z-1.00000
G1 X-25.79643 Y-138.78973 Z-1.00000
G1 X-25.93718 Y-138.67435 Z-1.00000
G1 X-25.98499 Y-138.65244 Z-1.00000
G1 X-26.01443 Y-138.65753 Z-1.00000
G1 X-26.02280 Y-138.69025 Z-1.00000
G1 X-26.01027 Y-138.74744 Z-1.00000
G1 X-25.92937 Y-138.92267 Z-1.00000
G1 X-25.78556 Y-139.15793 Z-1.00000
G1 X-25.59270 Y-139.42796 Z-1.00000
G1 X-25.38498 Y-139.68314 Z-1.00000
G1 X-25.20074 Y-139.87796 Z-1.00000
G1 X-25.05998 Y-139.99333 Z-1.00000
G1 X-25.01217 Y-140.01526 Z-1.00000
G1 X-24.98273 Y-140.01015 Z-1.00000
G0 X-24.98273 Y-140.01015 Z+5.08000
G0 X-31.62271 Y-147.85031 Z+5.08000
G1 X-31.62271 Y-147.85031 Z-1.00000 F762.0
G1 X-31.80671 Y-147.69789 Z-1.00000 F3810.0
G1 X-32.16599 Y-147.43518 Z-1.00000
G1 X-37.64697 Y-147.44716 Z-1.00000
G1 X-37.27050 Y-147.74704 Z-1.00000
G1 X-37.06625 Y-147.91435 Z-1.00000
G1 X-37.01854 Y-147.96196 Z-1.00000
G1 X-37.00845 Y-147.98787 Z-1.00000
G1 X-37.10520 Y-147.98161 Z-1.00000
G1 X-37.36462 Y-147.90958 Z-1.00000
G1 X-37.83520 Y-147.80453 Z-1.00000
G1 X-38.30579 Y-147.74487 Z-1.00000
G1 X-38.46379 Y-147.74278 Z-1.00000
G1 X-38.55961 Y-147.75731 Z-1.00000
G1 X-38.59835 Y-147.78644 Z-1.00000
G1 X-38.58512 Y-147.82813 Z-1.00000
G1 X-38.52506 Y-147.88034 Z-1.00000
G1 X-38.42326 Y-147.94106 Z-1.00000
G1 X-38.11492 Y-148.07982 Z-1.00000
G1 X-37.70103 Y-148.22818 Z-1.00000
G1 X-37.22251 Y-148.36984 Z-1.00000
G1 X-36.72026 Y-148.48854 Z-1.00000
G1 X-36.23521 Y-148.56802 Z-1.00000
G1 X-35.67241 Y-148.61638 Z-1.00000
G1 X-35.04451 Y-148.64162 Z-1.00000
G1 X-34.42813 Y-148.64215 Z-1.00000
G1 X-33.89991 Y-148.61639 Z-1.00000
G1 X-33.41534 Y-148.55717 Z-1.00000
G1 X-32.91781 Y-148.46660 Z-1.00000
G1 X-32.46580 Y-148.35699 Z-1.00000
G1 X-32.11779 Y-148.24071 Z-1.00000
G1 X-31.75380 Y-148.07904 Z-1.00000
G1 X-31.65100 Y-148.01804 Z-1.00000
G1 X-31.59693 Y-147.96313 Z-1.00000
G1 X-31.58852 Y-147.90900 Z-1.00000
G1 X-31.62271 Y-147.85031 Z-1.00000
G0 X-31.62271 Y-147.85031 Z+5.08000
G0 X-33.94730 Y-174.16452 Z+5.08000
G1 X-33.94730 Y-174.16452 Z-1.00000 F762.0
G1 X-34.02011 Y-174.17371 Z-1.00000 F3810.0
G1 X-34.09368 Y-174.20239 Z-1.00000
G1 X-34.16890 Y-174.25233 Z-1.00000
G1 X-34.24664 Y-174.32527 Z-1.00000
G1 X-34.41322 Y-174.54712 Z-1.00000
G1 X-34.60048 Y-174.88187 Z-1.00000
G1 X-34.81543 Y-175.34346 Z-1.00000
G1 X-35.06514 Y-175.94585 Z-1.00000
G1 X-35.69699 Y-177.62878 Z-1.00000
G1 X-36.23521 Y-179.11658 Z-1.00000
G1 X-36.23521 Y-179.43510 Z-1.00000
G1 X-32.90321 Y-179.43510 Z-1.00000
G1 X-31.67862 Y-174.68141 Z-1.00000
G1 X-31.92440 Y-174.52951 Z-1.00000
G1 X-32.03320 Y-174.47878 Z-1.00000
G1 X-32.14773 Y-174.45297 Z-1.00000
G1 X-32.25438 Y-174.45361 Z-1.00000
G1 X-32.33952 Y-174.48225 Z-1.00000
G1 X-32.50886 Y-174.58691 Z-1.00000
G1 X-33.24509 Y-176.18805 Z-1.00000
G1 X-33.79861 Y-177.45258 Z-1.00000
G1 X-33.99311 Y-177.94133 Z-1.00000
G1 X-34.09557 Y-178.24443 Z-1.00000
G1 X-34.14597 Y-178.41518 Z-1.00000
G1 X-34.19871 Y-178.54352 Z-1.00000
G1 X-34.24755 Y-178.61703 Z-1.00000
G1 X-34.26855 Y-178.62935 Z-1.00000
G1 X-34.28623 Y-178.62331 Z-1.00000
G1 X-34.36262 Y-178.54691 Z-1.00000
G1 X-33.37604 Y-174.71716 Z-1.00000
G1 X-33.48207 Y-174.44084 Z-1.00000
G1 X-33.55158 Y-174.33356 Z-1.00000
G1 X-33.66247 Y-174.24570 Z-1.00000
G1 X-33.79947 Y-174.18633 Z-1.00000
G1 X-33.94730 Y-174.16452 Z-1.00000
G0 X-33.94730 Y-174.16452 Z+5.08000
G0 X-30.20749 Y-176.04688 Z+5.08000
G1 X-30.20749 Y-176.04688 Z-1.00000 F762.0
G1 X-31.71757 Y-179.05028 Z-1.00000 F3810.0
G1 X-31.71757 Y-179.24269 Z-1.00000
G1 X-31.70825 Y-179.28134 Z-1.00000
G1 X-31.68153 Y-179.31740 Z-1.00000
G1 X-31.58339 Y-179.37859 Z-1.00000
G1 X-31.43815 Y-179.41992 Z-1.00000
G1 X-31.26078 Y-179.43510 Z-1.00000
G1 X-31.06654 Y-179.41170 Z-1.00000
G1 X-30.90513 Y-179.34523 Z-1.00000
G1 X-30.78582 Y-179.24136 Z-1.00000
G1 X-30.74487 Y-179.17714 Z-1.00000
G1 X-30.71792 Y-179.10570 Z-1.00000
G1 X-30.67049 Y-178.93570 Z-1.00000
G1 X-30.64181 Y-178.88060 Z-1.00000
G1 X-30.62420 Y-178.94131 Z-1.00000
G1 X-30.61000 Y-179.11877 Z-1.00000
G1 X-30.57622 Y-179.27107 Z-1.00000
G1 X-30.54174 Y-179.32579 Z-1.00000
G1 X-30.49470 Y-179.36674 Z-1.00000
G1 X-30.43445 Y-179.39436 Z-1.00000
G1 X-30.36038 Y-179.40903 Z-1.00000
G1 X-30.16823 Y-179.40114 Z-1.00000
G1 X-30.04497 Y-179.37408 Z-1.00000
G1 X-29.94311 Y-179.32578 Z-1.00000
G1 X-29.85841 Y-179.24733 Z-1.00000
G1 X-29.78664 Y-179.12988 Z-1.00000
G1 X-29.72357 Y-178.96454 Z-1.00000
G1 X-29.66496 Y-178.74243 Z-1.00000
G1 X-29.54418 Y-178.09238 Z-1.00000
G1 X-29.47876 Y-177.62157 Z-1.00000
G1 X-29.44588 Y-177.21011 Z-1.00000
G1 X-29.44534 Y-176.85907 Z-1.00000
G1 X-29.47697 Y-176.56949 Z-1.00000
G1 X-29.54056 Y-176.34242 Z-1.00000
G1 X-29.63592 Y-176.17892 Z-1.00000
G1 X-29.69546 Y-176.12135 Z-1.00000
G1 X-29.76286 Y-176.08006 Z-1.00000
G1 X-29.83810 Y-176.05519 Z-1.00000
G1 X-29.92117 Y-176.04688 Z-1.00000
G1 X-30.20749 Y-176.04688 Z-1.00000
G0 X-30.20749 Y-176.04688 Z+5.08000
G0 X-26.78456 Y-35.69406 Z+5.08000
G1 X-26.78456 Y-35.69406 Z-1.00000 F762.0
G1 X-26.86679 Y-35.67501 Z-1.00000 F3810.0
G1 X-26.93081 Y-35.60065 Z-1.00000
G1 X-26.97076 Y-35.47474 Z-1.00000
G1 X-26.98077 Y-35.30101 Z-1.00000
G1 X-26.95499 Y-35.08321 Z-1.00000
G1 X-26.93011 Y-34.81682 Z-1.00000
G1 X-26.93234 Y-34.45728 Z-1.00000
G1 X-26.95984 Y-34.05170 Z-1.00000
G1 X-27.01079 Y-33.64722 Z-1.00000
G1 X-27.07068 Y-33.17429 Z-1.00000
G1 X-27.07846 Y-32.98986 Z-1.00000
G1 X-27.07070 Y-32.83323 Z-1.00000
G1 X-27.04684 Y-32.69921 Z-1.00000
G1 X-27.00633 Y-32.58262 Z-1.00000
G1 X-26.94859 Y-32.47831 Z-1.00000
G1 X-26.87307 Y-32.38107 Z-1.00000
G1 X-26.71976 Y-32.22999 Z-1.00000
G1 X-26.59365 Y-32.14854 Z-1.00000
G1 X-26.49732 Y-32.13263 Z-1.00000
G1 X-26.46112 Y-32.14796 Z-1.00000
G1 X-26.43334 Y-32.17814 Z-1.00000
G1 X-26.40429 Y-32.28097 Z-1.00000
G1 X-26.41274 Y-32.43702 Z-1.00000
G1 X-26.46126 Y-32.64218 Z-1.00000
G1 X-26.55243 Y-32.89235 Z-1.00000
G1 X-26.67374 Y-33.20226 Z-1.00000
G1 X-26.75671 Y-33.46183 Z-1.00000
G1 X-26.80107 Y-33.67384 Z-1.00000
G1 X-26.80654 Y-33.84108 Z-1.00000
G1 X-26.77287 Y-33.96632 Z-1.00000
G1 X-26.69979 Y-34.05233 Z-1.00000
G1 X-26.58702 Y-34.10190 Z-1.00000
G1 X-26.43431 Y-34.11781 Z-1.00000
G1 X-26.24647 Y-34.13604 Z-1.00000
G1 X-26.18589 Y-34.16193 Z-1.00000
G1 X-26.14578 Y-34.20174 Z-1.00000
G1 X-26.12483 Y-34.25752 Z-1.00000
G1 X-26.12173 Y-34.33134 Z-1.00000
G1 X-26.16379 Y-34.54134 Z-1.00000
G1 X-26.30773 Y-34.96298 Z-1.00000
G1 X-26.48719 Y-35.38197 Z-1.00000
G1 X-26.58890 Y-35.55128 Z-1.00000
G1 X-26.68998 Y-35.65406 Z-1.00000
G1 X-26.78456 Y-35.69406 Z-1.00000
G0 X-26.78456 Y-35.69406 Z+5.08000
G0 X-27.79245 Y-34.58839 Z+5.08000
G1 X-27.79245 Y-34.58839 Z-1.00000 F762.0
G1 X-26.48836 Y-39.32230 Z-1.00000 F3810.0
G1 X-26.06644 Y-40.15534 Z-1.00000
G1 X-25.83773 Y-40.57951 Z-1.00000
G1 X-25.52691 Y-41.11863 Z-1.00000
G1 X-24.82223 Y-42.26484 Z-1.00000
G1 X-23.99994 Y-43.54129 Z-1.00000
G1 X-23.99994 Y-43.70200 Z-1.00000
G1 X-24.04079 Y-43.79067 Z-1.00000
G1 X-24.15200 Y-43.91327 Z-1.00000
G1 X-24.31660 Y-44.05362 Z-1.00000
G1 X-24.51759 Y-44.19552 Z-1.00000
G1 X-24.76800 Y-44.37817 Z-1.00000
G1 X-25.06716 Y-44.62945 Z-1.00000
G1 X-25.37752 Y-44.91624 Z-1.00000
G1 X-25.66155 Y-45.20540 Z-1.00000
G1 X-26.18821 Y-45.80692 Z-1.00000
G1 X-26.57491 Y-46.30234 Z-1.00000
G1 X-26.73125 Y-46.49942 Z-1.00000
G1 X-26.80326 Y-46.56069 Z-1.00000
G1 X-26.87484 Y-46.59846 Z-1.00000
G1 X-26.94877 Y-46.61374 Z-1.00000
G1 X-27.02781 Y-46.60754 Z-1.00000
G1 X-27.21227 Y-46.53470 Z-1.00000
G1 X-27.56260 Y-46.34721 Z-1.00000
G1 X-28.63715 Y-44.51485 Z-1.00000
G1 X-30.42441 Y-41.52311 Z-1.00000
G1 X-30.67890 Y-41.09418 Z-1.00000
G1 X-30.89310 Y-40.70043 Z-1.00000
G1 X-31.06769 Y-40.34007 Z-1.00000
G1 X-31.20332 Y-40.01131 Z-1.00000
G1 X-31.30065 Y-39.71239 Z-1.00000
G1 X-31.36034 Y-39.44150 Z-1.00000
G1 X-31.38306 Y-39.19688 Z-1.00000
G1 X-31.36947 Y-38.97673 Z-1.00000
G1 X-31.37854 Y-38.83861 Z-1.00000
G1 X-31.43871 Y-38.69727 Z-1.00000
G1 X-31.54005 Y-38.56929 Z-1.00000
G1 X-31.67261 Y-38.47127 Z-1.00000
G1 X-31.75275 Y-38.41294 Z-1.00000
G1 X-31.83302 Y-38.32489 Z-1.00000
G1 X-31.98900 Y-38.06968 Z-1.00000
G1 X-32.13055 Y-37.72576 Z-1.00000
G1 X-32.24768 Y-37.31325 Z-1.00000
G1 X-32.36610 Y-36.73841 Z-1.00000
G1 X-32.37968 Y-36.53275 Z-1.00000
G1 X-32.35531 Y-36.35242 Z-1.00000
G1 X-32.28733 Y-36.17559 Z-1.00000
G1 X-32.17008 Y-35.98035 Z-1.00000
G1 X-31.76518 Y-35.44727 Z-1.00000
G1 X-31.45746 Y-35.07418 Z-1.00000
G1 X-31.14185 Y-34.72063 Z-1.00000
G1 X-30.85541 Y-34.42651 Z-1.00000
G1 X-30.63522 Y-34.23169 Z-1.00000
G1 X-30.39034 Y-34.06539 Z-1.00000
G1 X-30.31500 Y-34.05255 Z-1.00000
G1 X-30.28693 Y-34.06815 Z-1.00000
G1 X-30.26442 Y-34.10012 Z-1.00000
G1 X-30.23361 Y-34.21822 Z-1.00000
G1 X-30.21759 Y-34.41702 Z-1.00000
G1 X-30.20999 Y-35.09725 Z-1.00000
G1 X-30.17632 Y-35.72044 Z-1.00000
G1 X-30.08348 Y-36.47475 Z-1.00000
G1 X-29.94131 Y-37.31583 Z-1.00000
G1 X-29.75970 Y-38.19933 Z-1.00000
G1 X-29.54852 Y-39.08092 Z-1.00000
G1 X-29.31762 Y-39.91625 Z-1.00000
G1 X-29.07687 Y-40.66096 Z-1.00000
G1 X-28.83616 Y-41.27073 Z-1.00000
G1 X-28.61908 Y-41.70378 Z-1.00000
G1 X-28.37248 Y-42.11758 Z-1.00000
G1 X-28.12667 Y-42.46521 Z-1.00000
G1 X-27.91198 Y-42.69979 Z-1.00000
G1 X-27.81495 Y-42.79671 Z-1.00000
G1 X-27.71477 Y-42.92159 Z-1.00000
G1 X-27.51654 Y-43.23441 Z-1.00000
G1 X-27.34036 Y-43.59666 Z-1.00000
G1 X-27.20927 Y-43.96680 Z-1.00000
G1 X-27.11213 Y-44.27177 Z-1.00000
G1 X-27.00233 Y-44.54456 Z-1.00000
G1 X-26.88433 Y-44.77913 Z-1.00000
G1 X-26.76258 Y-44.96941 Z-1.00000
G1 X-26.64153 Y-45.10934 Z-1.00000
G1 X-26.52563 Y-45.19288 Z-1.00000
G1 X-26.47100 Y-45.21161 Z-1.00000
G1 X-26.41934 Y-45.21396 Z-1.00000
G1 X-26.37119 Y-45.19919 Z-1.00000
G1 X-26.32712 Y-45.16653 Z-1.00000
G1 X-26.29556 Y-45.10592 Z-1.00000
G1 X-26.28241 Y-45.00776 Z-1.00000
G1 X-26.30830 Y-44.70861 Z-1.00000
G1 X-26.39868 Y-44.28867 Z-1.00000
G1 X-26.54744 Y-43.76756 Z-1.00000
G1 X-26.74849 Y-43.16489 Z-1.00000
G1 X-26.99571 Y-42.50026 Z-1.00000
G1 X-27.28300 Y-41.79329 Z-1.00000
G1 X-27.60426 Y-41.06358 Z-1.00000
G1 X-28.51758 Y-39.06820 Z-1.00000
G1 X-28.51758 Y-38.75145 Z-1.00000
G1 X-28.55514 Y-38.55433 Z-1.00000
G1 X-28.65742 Y-38.25177 Z-1.00000
G1 X-28.80879 Y-37.88500 Z-1.00000
G1 X-28.99364 Y-37.49524 Z-1.00000
G1 X-29.10760 Y-37.25103 Z-1.00000
G1 X-29.21174 Y-36.98759 Z-1.00000
G1 X-29.39047 Y-36.40336 Z-1.00000
G1 X-29.52970 Y-35.74310 Z-1.00000
G1 X-29.62926 Y-35.00738 Z-1.00000
G1 X-29.71184 Y-34.11001 Z-1.00000
G1 X-29.72012 Y-33.81430 Z-1.00000
G1 X-29.70093 Y-33.58899 Z-1.00000
G1 X-29.65015 Y-33.41038 Z-1.00000
G1 X-29.56369 Y-33.25479 Z-1.00000
G1 X-29.43744 Y-33.09852 Z-1.00000
G1 X-29.26730 Y-32.91788 Z-1.00000
G1 X-29.04857 Y-32.71782 Z-1.00000
G1 X-28.83854 Y-32.57308 Z-1.00000
G1 X-28.66107 Y-32.49726 Z-1.00000
G1 X-28.59200 Y-32.48943 Z-1.00000
G1 X-28.54003 Y-32.50393 Z-1.00000
G1 X-28.49317 Y-32.54945 Z-1.00000
G1 X-28.43877 Y-32.63053 Z-1.00000
G1 X-28.31514 Y-32.88122 Z-1.00000
G1 X-28.18480 Y-33.21972 Z-1.00000
G1 X-28.06337 Y-33.60974 Z-1.00000
G1 X-27.79245 Y-34.58839 Z-1.00000
G0 X-27.79245 Y-34.58839 Z+5.08000
G0 X-35.54280 Y-38.70040 Z+5.08000
G1 X-35.54280 Y-38.70040 Z-1.00000 F762.0
G1 X-35.52351 Y-38.76575 Z-1.00000 F3810.0
G1 X-35.53828 Y-38.87638 Z-1.00000
G1 X-35.58342 Y-39.01684 Z-1.00000
G1 X-35.65525 Y-39.17165 Z-1.00000
G1 X-35.73949 Y-39.35848 Z-1.00000
G1 X-35.80047 Y-39.55399 Z-1.00000
G1 X-35.83807 Y-39.74783 Z-1.00000
G1 X-35.85215 Y-39.92964 Z-1.00000
G1 X-35.84257 Y-40.08907 Z-1.00000
G1 X-35.80919 Y-40.21577 Z-1.00000
G1 X-35.75188 Y-40.29939 Z-1.00000
G1 X-35.71421 Y-40.32180 Z-1.00000
G1 X-35.67050 Y-40.32956 Z-1.00000
G1 X-35.59741 Y-40.34394 Z-1.00000
G1 X-35.53756 Y-40.38311 Z-1.00000
G1 X-35.49712 Y-40.44109 Z-1.00000
G1 X-35.48227 Y-40.51188 Z-1.00000
G1 X-35.50151 Y-40.57529 Z-1.00000
G1 X-35.55392 Y-40.61316 Z-1.00000
G1 X-35.63148 Y-40.62256 Z-1.00000
G1 X-35.72620 Y-40.60061 Z-1.00000
G1 X-35.97014 Y-40.50700 Z-1.00000
G1 X-38.39991 Y-43.55938 Z-1.00000
G1 X-38.34656 Y-43.33737 Z-1.00000
G1 X-38.27963 Y-43.19365 Z-1.00000
G1 X-38.13682 Y-42.96646 Z-1.00000
G1 X-37.70745 Y-42.38646 Z-1.00000
G1 X-37.42307 Y-42.00927 Z-1.00000
G1 X-37.33458 Y-41.86547 Z-1.00000
G1 X-37.27937 Y-41.74433 Z-1.00000
G1 X-37.25552 Y-41.64045 Z-1.00000
G1 X-37.26116 Y-41.54845 Z-1.00000
G1 X-37.29439 Y-41.46292 Z-1.00000
G1 X-37.35330 Y-41.37848 Z-1.00000
G1 X-37.41288 Y-41.29536 Z-1.00000
G1 X-37.44952 Y-41.21315 Z-1.00000
G1 X-37.46201 Y-41.12720 Z-1.00000
G1 X-37.44915 Y-41.03290 Z-1.00000
G1 X-37.40973 Y-40.92559 Z-1.00000
G1 X-37.34256 Y-40.80062 Z-1.00000
G1 X-37.12014 Y-40.47919 Z-1.00000
G1 X-36.93069 Y-40.20863 Z-1.00000
G1 X-36.75845 Y-39.93044 Z-1.00000
G1 X-36.62239 Y-39.67733 Z-1.00000
G1 X-36.54151 Y-39.48203 Z-1.00000
G1 X-36.47199 Y-39.33124 Z-1.00000
G1 X-36.35961 Y-39.17444 Z-1.00000
G1 X-36.21789 Y-39.02222 Z-1.00000
G1 X-36.06037 Y-38.88516 Z-1.00000
G1 X-35.90057 Y-38.77386 Z-1.00000
G1 X-35.75203 Y-38.69891 Z-1.00000
G1 X-35.62826 Y-38.67089 Z-1.00000
G1 X-35.57990 Y-38.67780 Z-1.00000
G1 X-35.54280 Y-38.70040 Z-1.00000
G0 X-35.54280 Y-38.70040 Z+5.08000
G0 X-38.02779 Y-40.42319 Z+5.08000
G1 X-38.02779 Y-40.42319 Z-1.00000 F762.0
G1 X-38.03001 Y-40.45151 Z-1.00000 F3810.0
G1 X-38.08958 Y-40.54338 Z-1.00000
G1 X-38.22503 Y-40.68925 Z-1.00000
G1 X-38.73484 Y-41.17686 Z-1.00000
G1 X-39.09787 Y-41.50566 Z-1.00000
G1 X-39.42129 Y-41.77492 Z-1.00000
G1 X-39.66988 Y-41.95685 Z-1.00000
G1 X-39.80840 Y-42.02367 Z-1.00000
G1 X-39.90262 Y-42.05935 Z-1.00000
G1 X-40.03058 Y-42.15649 Z-1.00000
G1 X-40.17549 Y-42.30026 Z-1.00000
G1 X-40.32053 Y-42.47582 Z-1.00000
G1 X-40.57768 Y-42.77766 Z-1.00000
G1 X-40.67015 Y-42.85586 Z-1.00000
G1 X-40.72104 Y-42.86841 Z-1.00000
G1 X-40.73367 Y-42.80511 Z-1.00000
G1 X-40.70358 Y-42.69279 Z-1.00000
G1 X-40.54342 Y-42.36963 Z-1.00000
G1 X-40.29714 Y-41.99590 Z-1.00000
G1 X-40.02129 Y-41.66858 Z-1.00000
G1 X-39.71104 Y-41.32598 Z-1.00000
G1 X-39.42377 Y-40.96088 Z-1.00000
G1 X-39.35590 Y-40.88178 Z-1.00000
G1 X-39.26659 Y-40.80305 Z-1.00000
G1 X-39.03890 Y-40.65505 Z-1.00000
G1 X-38.77121 Y-40.53347 Z-1.00000
G1 X-38.49402 Y-40.45491 Z-1.00000
G1 X-38.12720 Y-40.39596 Z-1.00000
G1 X-38.04349 Y-40.40519 Z-1.00000
G1 X-38.02779 Y-40.42319 Z-1.00000
G0 X-38.02779 Y-40.42319 Z+5.08000
G0 X-36.40030 Y-42.49426 Z+5.08000
G1 X-36.40030 Y-42.49426 Z-1.00000 F762.0
G1 X-36.53203 Y-43.05896 Z-1.00000 F3810.0
G1 X-36.59969 Y-43.30832 Z-1.00000
G1 X-36.68653 Y-43.56982 Z-1.00000
G1 X-36.78137 Y-43.81242 Z-1.00000
G1 X-36.87301 Y-44.00506 Z-1.00000
G1 X-37.29566 Y-44.69850 Z-1.00000
G1 X-38.01797 Y-45.83014 Z-1.00000
G1 X-38.95367 Y-47.27382 Z-1.00000
G1 X-39.01554 Y-47.21194 Z-1.00000
G1 X-39.01664 Y-47.17670 Z-1.00000
G1 X-38.99331 Y-47.10096 Z-1.00000
G1 X-38.88043 Y-46.84107 Z-1.00000
G1 X-38.43911 Y-45.97950 Z-1.00000
G1 X-37.80426 Y-44.83707 Z-1.00000
G1 X-37.08861 Y-43.62366 Z-1.00000
G1 X-36.40030 Y-42.49426 Z-1.00000
G0 X-36.40030 Y-42.49426 Z+5.08000
G0 X-40.64766 Y-43.97831 Z+5.08000
G1 X-40.64766 Y-43.97831 Z-1.00000 F762.0
G1 X-40.63443 Y-44.11447 Z-1.00000 F3810.0
G1 X-40.66813 Y-44.27781 Z-1.00000
G1 X-40.74835 Y-44.46233 Z-1.00000
G1 X-40.83004 Y-44.66085 Z-1.00000
G1 X-40.89087 Y-44.89942 Z-1.00000
G1 X-40.92498 Y-45.14802 Z-1.00000
G1 X-40.92652 Y-45.37666 Z-1.00000
G1 X-40.92314 Y-45.59153 Z-1.00000
G1 X-40.94678 Y-45.82305 Z-1.00000
G1 X-40.99836 Y-46.07392 Z-1.00000
G1 X-41.07875 Y-46.34684 Z-1.00000
G1 X-41.18888 Y-46.64451 Z-1.00000
G1 X-41.32963 Y-46.96962 Z-1.00000
G1 X-41.70662 Y-47.71298 Z-1.00000
G1 X-41.85267 Y-48.00415 Z-1.00000
G1 X-41.96751 Y-48.27865 Z-1.00000
G1 X-42.03964 Y-48.50562 Z-1.00000
G1 X-42.05753 Y-48.65416 Z-1.00000
G1 X-42.04173 Y-48.89283 Z-1.00000
G1 X-42.04818 Y-49.12954 Z-1.00000
G1 X-42.08655 Y-49.25060 Z-1.00000
G1 X-42.17452 Y-49.40630 Z-1.00000
G1 X-42.29902 Y-49.57656 Z-1.00000
G1 X-42.44696 Y-49.74130 Z-1.00000
G1 X-42.73656 Y-50.00718 Z-1.00000
G1 X-42.84313 Y-50.08806 Z-1.00000
G1 X-42.90420 Y-50.11777 Z-1.00000
G1 X-42.95258 Y-50.03578 Z-1.00000
G1 X-43.02461 Y-49.81254 Z-1.00000
G1 X-43.20068 Y-49.07870 Z-1.00000
G1 X-43.29993 Y-48.51273 Z-1.00000
G1 X-43.31982 Y-48.28395 Z-1.00000
G1 X-43.31895 Y-48.07512 Z-1.00000
G1 X-43.29666 Y-47.87408 Z-1.00000
G1 X-43.25225 Y-47.66871 Z-1.00000
G1 X-43.09433 Y-47.19636 Z-1.00000
G1 X-42.95100 Y-46.86893 Z-1.00000
G1 X-42.79880 Y-46.60079 Z-1.00000
G1 X-42.65591 Y-46.41961 Z-1.00000
G1 X-42.59364 Y-46.37029 Z-1.00000
G1 X-42.54051 Y-46.35307 Z-1.00000
G1 X-42.48537 Y-46.34040 Z-1.00000
G1 X-42.41982 Y-46.30363 Z-1.00000
G1 X-42.26266 Y-46.16542 Z-1.00000
G1 X-42.07947 Y-45.95355 Z-1.00000
G1 X-41.88069 Y-45.68316 Z-1.00000
G1 X-41.67674 Y-45.36938 Z-1.00000
G1 X-41.47806 Y-45.02736 Z-1.00000
G1 X-41.29509 Y-44.67221 Z-1.00000
G1 X-41.13824 Y-44.31907 Z-1.00000
G1 X-41.02000 Y-44.06846 Z-1.00000
G1 X-40.90598 Y-43.90794 Z-1.00000
G1 X-40.85193 Y-43.86288 Z-1.00000
G1 X-40.80059 Y-43.84205 Z-1.00000
G1 X-40.75251 Y-43.84602 Z-1.00000
G1 X-40.70823 Y-43.87534 Z-1.00000
G1 X-40.64766 Y-43.97831 Z-1.00000
G0 X-40.64766 Y-43.97831 Z+5.08000
G0 X-38.33510 Y-66.33243 Z+5.08000
G1 X-38.33510 Y-66.33243 Z-1.00000 F762.0
G1 X-38.25443 Y-66.38068 Z-1.00000 F3810.0
G1 X-38.16135 Y-66.50621 Z-1.00000
G1 X-38.05802 Y-66.70875 Z-1.00000
G1 X-37.94655 Y-66.98801 Z-1.00000
G1 X-37.83171 Y-67.33929 Z-1.00000
G1 X-37.79401 Y-67.57041 Z-1.00000
G1 X-37.80415 Y-67.65286 Z-1.00000
G1 X-37.83365 Y-67.71961 Z-1.00000
G1 X-37.88253 Y-67.77544 Z-1.00000
G1 X-37.95083 Y-67.82513 Z-1.00000
G1 X-38.06900 Y-67.87638 Z-1.00000
G1 X-38.17448 Y-67.87759 Z-1.00000
G1 X-38.26640 Y-67.83025 Z-1.00000
G1 X-38.34385 Y-67.73586 Z-1.00000
G1 X-38.40593 Y-67.59591 Z-1.00000
G1 X-38.45177 Y-67.41191 Z-1.00000
G1 X-38.48047 Y-67.18535 Z-1.00000
G1 X-38.49114 Y-66.91772 Z-1.00000
G1 X-38.48139 Y-66.65411 Z-1.00000
G1 X-38.45071 Y-66.46886 Z-1.00000
G1 X-38.40124 Y-66.36173 Z-1.00000
G1 X-38.37012 Y-66.33736 Z-1.00000
G1 X-38.33510 Y-66.33243 Z-1.00000
G0 X-38.33510 Y-66.33243 Z+5.08000
G0 X-38.45415 Y-69.10716 Z+5.08000
G1 X-38.45415 Y-69.10716 Z-1.00000 F762.0
G1 X-38.34447 Y-69.14001 Z-1.00000 F3810.0
G1 X-38.20443 Y-69.20217 Z-1.00000
G1 X-38.04565 Y-69.29636 Z-1.00000
G1 X-37.91339 Y-69.42426 Z-1.00000
G1 X-37.80341 Y-69.59943 Z-1.00000
G1 X-37.71152 Y-69.83541 Z-1.00000
G1 X-37.63349 Y-70.14574 Z-1.00000
G1 X-37.56511 Y-70.54398 Z-1.00000
G1 X-37.44046 Y-71.65836 Z-1.00000
G1 X-37.36766 Y-72.16693 Z-1.00000
G1 X-37.23869 Y-72.80193 Z-1.00000
G1 X-37.07177 Y-73.48236 Z-1.00000
G1 X-36.88512 Y-74.12719 Z-1.00000
G1 X-36.70607 Y-74.73077 Z-1.00000
G1 X-36.55987 Y-75.29889 Z-1.00000
G1 X-36.46157 Y-75.76768 Z-1.00000
G1 X-36.42622 Y-76.07329 Z-1.00000
G1 X-36.43153 Y-76.35007 Z-1.00000
G1 X-36.44082 Y-76.41996 Z-1.00000
G1 X-36.45830 Y-76.44450 Z-1.00000
G1 X-36.48676 Y-76.42396 Z-1.00000
G1 X-36.52903 Y-76.35855 Z-1.00000
G1 X-36.66622 Y-76.09418 Z-1.00000
G1 X-36.78930 Y-75.90698 Z-1.00000
G1 X-36.94906 Y-75.74517 Z-1.00000
G1 X-37.12483 Y-75.62604 Z-1.00000
G1 X-37.29595 Y-75.56689 Z-1.00000
G1 X-37.41091 Y-75.54091 Z-1.00000
G1 X-37.50420 Y-75.49367 Z-1.00000
G1 X-37.57933 Y-75.41613 Z-1.00000
G1 X-37.63979 Y-75.29930 Z-1.00000
G1 X-37.68912 Y-75.13416 Z-1.00000
G1 X-37.73080 Y-74.91169 Z-1.00000
G1 X-37.80531 Y-74.25873 Z-1.00000
G1 X-37.87426 Y-73.70358 Z-1.00000
G1 X-37.96474 Y-73.28204 Z-1.00000
G1 X-38.01787 Y-73.12196 Z-1.00000
G1 X-38.07619 Y-72.99599 Z-1.00000
G1 X-38.13962 Y-72.90434 Z-1.00000
G1 X-38.20810 Y-72.84725 Z-1.00000
G1 X-38.26647 Y-72.80287 Z-1.00000
G1 X-38.32049 Y-72.73893 Z-1.00000
G1 X-38.41125 Y-72.56346 Z-1.00000
G1 X-38.47192 Y-72.34299 Z-1.00000
G1 X-38.49402 Y-72.09966 Z-1.00000
G1 X-38.51503 Y-71.84805 Z-1.00000
G1 X-38.57221 Y-71.59737 Z-1.00000
G1 X-38.65684 Y-71.37664 Z-1.00000
G1 X-38.76019 Y-71.21489 Z-1.00000
G1 X-38.83069 Y-71.12417 Z-1.00000
G1 X-38.88302 Y-71.02609 Z-1.00000
G1 X-38.91752 Y-70.91483 Z-1.00000
G1 X-38.93454 Y-70.78455 Z-1.00000
G1 X-38.93442 Y-70.62940 Z-1.00000
G1 X-38.91751 Y-70.44357 Z-1.00000
G1 X-38.83469 Y-69.95645 Z-1.00000
G1 X-38.71787 Y-69.42278 Z-1.00000
G1 X-38.66534 Y-69.26144 Z-1.00000
G1 X-38.60815 Y-69.16019 Z-1.00000
G1 X-38.53990 Y-69.11133 Z-1.00000
G1 X-38.45415 Y-69.10716 Z-1.00000
G0 X-38.45415 Y-69.10716 Z+5.08000
G0 X-41.73769 Y-69.41184 Z+5.08000
G1 X-41.73769 Y-69.41184 Z-1.00000 F762.0
G1 X-41.70546 Y-76.00006 Z-1.00000 F3810.0
G1 X-41.89733 Y-75.67065 Z-1.00000
G1 X-41.99861 Y-75.54274 Z-1.00000
G1 X-42.13256 Y-75.43800 Z-1.00000
G1 X-42.28172 Y-75.36723 Z-1.00000
G1 X-42.42868 Y-75.34124 Z-1.00000
G1 X-42.52703 Y-75.33385 Z-1.00000
G1 X-42.60301 Y-75.30708 Z-1.00000
G1 X-42.65844 Y-75.25403 Z-1.00000
G1 X-42.69516 Y-75.16779 Z-1.00000
G1 X-42.71500 Y-75.04147 Z-1.00000
G1 X-42.71982 Y-74.86817 Z-1.00000
G1 X-42.69168 Y-74.35300 Z-1.00000
G1 X-42.63362 Y-73.84304 Z-1.00000
G1 X-42.53205 Y-73.18507 Z-1.00000
G1 X-42.40128 Y-72.46400 Z-1.00000
G1 X-42.25563 Y-71.76478 Z-1.00000
G1 X-41.81687 Y-69.78831 Z-1.00000
G1 X-41.73769 Y-69.41184 Z-1.00000
G0 X-41.73769 Y-69.41184 Z+5.08000
G0 X-40.33784 Y-75.78361 Z+5.08000
G1 X-40.33784 Y-75.78361 Z-1.00000 F762.0
G1 X-40.31983 Y-75.77997 Z-1.00000 F3810.0
G1 X-40.26565 Y-75.85648 Z-1.00000
G1 X-40.18227 Y-76.04712 Z-1.00000
G1 X-40.08757 Y-76.21178 Z-1.00000
G1 X-39.95575 Y-76.34643 Z-1.00000
G1 X-39.80410 Y-76.43730 Z-1.00000
G1 X-39.64991 Y-76.47064 Z-1.00000
G1 X-39.56651 Y-76.47865 Z-1.00000
G1 X-39.48866 Y-76.50227 Z-1.00000
G1 X-39.41691 Y-76.54098 Z-1.00000
G1 X-39.35185 Y-76.59421 Z-1.00000
G1 X-39.24401 Y-76.74200 Z-1.00000
G1 X-39.16967 Y-76.94123 Z-1.00000
G1 X-39.09584 Y-77.13860 Z-1.00000
G1 X-38.98867 Y-77.28661 Z-1.00000
G1 X-38.92436 Y-77.34032 Z-1.00000
G1 X-38.85385 Y-77.37957 Z-1.00000
G1 X-38.77785 Y-77.40364 Z-1.00000
G1 X-38.69709 Y-77.41182 Z-1.00000
G1 X-38.61403 Y-77.42141 Z-1.00000
G1 X-38.53372 Y-77.44973 Z-1.00000
G1 X-38.45683 Y-77.49614 Z-1.00000
G1 X-38.38397 Y-77.55998 Z-1.00000
G1 X-38.25294 Y-77.73733 Z-1.00000
G1 X-38.14576 Y-77.97652 Z-1.00000
G1 X-38.04560 Y-78.18551 Z-1.00000
G1 X-37.91283 Y-78.35078 Z-1.00000
G1 X-37.75861 Y-78.46943 Z-1.00000
G1 X-37.59414 Y-78.53853 Z-1.00000
G1 X-37.43057 Y-78.55516 Z-1.00000
G1 X-37.27908 Y-78.51641 Z-1.00000
G1 X-37.21136 Y-78.47535 Z-1.00000
G1 X-37.15085 Y-78.41934 Z-1.00000
G1 X-37.09895 Y-78.34804 Z-1.00000
G1 X-37.05705 Y-78.26105 Z-1.00000
G1 X-37.02035 Y-78.20054 Z-1.00000
G1 X-36.97173 Y-78.17500 Z-1.00000
G1 X-36.91268 Y-78.18204 Z-1.00000
G1 X-36.84470 Y-78.21926 Z-1.00000
G1 X-36.68792 Y-78.37469 Z-1.00000
G1 X-36.51337 Y-78.62214 Z-1.00000
G1 X-36.33301 Y-78.94247 Z-1.00000
G1 X-36.15881 Y-79.31652 Z-1.00000
G1 X-36.00275 Y-79.72515 Z-1.00000
G1 X-35.87678 Y-80.14922 Z-1.00000
G1 X-35.76162 Y-80.53824 Z-1.00000
G1 X-35.62144 Y-80.90762 Z-1.00000
G1 X-35.47397 Y-81.21563 Z-1.00000
G1 X-35.33692 Y-81.42056 Z-1.00000
G1 X-35.03161 Y-81.75873 Z-1.00000
G1 X-34.95255 Y-83.97627 Z-1.00000
G1 X-34.92941 Y-85.15925 Z-1.00000
G1 X-34.93966 Y-85.64575 Z-1.00000
G1 X-34.96682 Y-86.09043 Z-1.00000
G1 X-35.01266 Y-86.51441 Z-1.00000
G1 X-35.07898 Y-86.93882 Z-1.00000
G1 X-35.16753 Y-87.38477 Z-1.00000
G1 X-35.28009 Y-87.87340 Z-1.00000
G1 X-35.63400 Y-89.25312 Z-1.00000
G1 X-35.91390 Y-90.21179 Z-1.00000
G1 X-35.99911 Y-90.43789 Z-1.00000
G1 X-36.06319 Y-90.56649 Z-1.00000
G1 X-36.08535 Y-90.59134 Z-1.00000
G1 X-36.09991 Y-90.58833 Z-1.00000
G1 X-36.10308 Y-90.49414 Z-1.00000
G1 X-36.06506 Y-90.11767 Z-1.00000
G1 X-35.60355 Y-86.37529 Z-1.00000
G1 X-35.79702 Y-86.31080 Z-1.00000
G1 X-35.83653 Y-86.27959 Z-1.00000
G1 X-35.86900 Y-86.21635 Z-1.00000
G1 X-35.91172 Y-86.00428 Z-1.00000
G1 X-35.92301 Y-85.69563 Z-1.00000
G1 X-35.90067 Y-85.31141 Z-1.00000
G1 X-35.86782 Y-84.84200 Z-1.00000
G1 X-35.86986 Y-84.67879 Z-1.00000
G1 X-35.88573 Y-84.55655 Z-1.00000
G1 X-35.91653 Y-84.47023 Z-1.00000
G1 X-35.96341 Y-84.41481 Z-1.00000
G1 X-36.02749 Y-84.38525 Z-1.00000
G1 X-36.10989 Y-84.37651 Z-1.00000
G1 X-36.17971 Y-84.38870 Z-1.00000
G1 X-36.24819 Y-84.42461 Z-1.00000
G1 X-36.31466 Y-84.48324 Z-1.00000
G1 X-36.37843 Y-84.56360 Z-1.00000
G1 X-36.49516 Y-84.78551 Z-1.00000
G1 X-36.59291 Y-85.08239 Z-1.00000
G1 X-36.89622 Y-86.20860 Z-1.00000
G1 X-36.99497 Y-86.53193 Z-1.00000
G1 X-37.06228 Y-86.70240 Z-1.00000
G1 X-37.08504 Y-86.73194 Z-1.00000
G1 X-37.10102 Y-86.72523 Z-1.00000
G1 X-37.11406 Y-86.60564 Z-1.00000
G1 X-37.07451 Y-85.96014 Z-1.00000
G1 X-37.04263 Y-85.49151 Z-1.00000
G1 X-37.03497 Y-85.10349 Z-1.00000
G1 X-37.05249 Y-84.79278 Z-1.00000
G1 X-37.09612 Y-84.55601 Z-1.00000
G1 X-37.16682 Y-84.38986 Z-1.00000
G1 X-37.21261 Y-84.33222 Z-1.00000
G1 X-37.26553 Y-84.29099 Z-1.00000
G1 X-37.32568 Y-84.26574 Z-1.00000
G1 X-37.39320 Y-84.25606 Z-1.00000
G1 X-37.55077 Y-84.28173 Z-1.00000
G1 X-37.72178 Y-84.31283 Z-1.00000
G1 X-37.77195 Y-84.29076 Z-1.00000
G1 X-37.80041 Y-84.23620 Z-1.00000
G1 X-37.80856 Y-84.14355 Z-1.00000
G1 X-37.79776 Y-84.00726 Z-1.00000
G1 X-37.72491 Y-83.58146 Z-1.00000
G1 X-37.59047 Y-82.76856 Z-1.00000
G1 X-37.56506 Y-82.47791 Z-1.00000
G1 X-37.56821 Y-82.25716 Z-1.00000
G1 X-37.60044 Y-82.10088 Z-1.00000
G1 X-37.66224 Y-82.00360 Z-1.00000
G1 X-37.75414 Y-81.95986 Z-1.00000
G1 X-37.87665 Y-81.96421 Z-1.00000
G1 X-37.94957 Y-81.99155 Z-1.00000
G1 X-38.02409 Y-82.04455 Z-1.00000
G1 X-38.17203 Y-82.21867 Z-1.00000
G1 X-38.30870 Y-82.46901 Z-1.00000
G1 X-38.42231 Y-82.77801 Z-1.00000
G1 X-38.54910 Y-83.18175 Z-1.00000
G1 X-38.58868 Y-83.25993 Z-1.00000
G1 X-38.60364 Y-83.26490 Z-1.00000
G1 X-38.61579 Y-83.24592 Z-1.00000
G1 X-38.63293 Y-83.13243 Z-1.00000
G1 X-38.64265 Y-82.91217 Z-1.00000
G1 X-38.64994 Y-82.12212 Z-1.00000
G1 X-38.66710 Y-81.54810 Z-1.00000
G1 X-38.71041 Y-81.08930 Z-1.00000
G1 X-38.77531 Y-80.77827 Z-1.00000
G1 X-38.81443 Y-80.68836 Z-1.00000
G1 X-38.85722 Y-80.64761 Z-1.00000
G1 X-38.93546 Y-80.58563 Z-1.00000
G1 X-38.99953 Y-80.46655 Z-1.00000
G1 X-39.04283 Y-80.30746 Z-1.00000
G1 X-39.05873 Y-80.12554 Z-1.00000
G1 X-39.07842 Y-79.94022 Z-1.00000
G1 X-39.13388 Y-79.79653 Z-1.00000
G1 X-39.21964 Y-79.70364 Z-1.00000
G1 X-39.27218 Y-79.67908 Z-1.00000
G1 X-39.33026 Y-79.67064 Z-1.00000
G1 X-39.39358 Y-79.65805 Z-1.00000
G1 X-39.45296 Y-79.62077 Z-1.00000
G1 X-39.50804 Y-79.55948 Z-1.00000
G1 X-39.55848 Y-79.47490 Z-1.00000
G1 X-39.64401 Y-79.23867 Z-1.00000
G1 X-39.70673 Y-78.91770 Z-1.00000
G1 X-39.75490 Y-78.62534 Z-1.00000
G1 X-39.80849 Y-78.38593 Z-1.00000
G1 X-39.86096 Y-78.22417 Z-1.00000
G1 X-39.90578 Y-78.16476 Z-1.00000
G1 X-39.99620 Y-78.14017 Z-1.00000
G1 X-40.09998 Y-78.07300 Z-1.00000
G1 X-40.20930 Y-77.97317 Z-1.00000
G1 X-40.31631 Y-77.85059 Z-1.00000
G1 X-40.41319 Y-77.71518 Z-1.00000
G1 X-40.49208 Y-77.57687 Z-1.00000
G1 X-40.54517 Y-77.44555 Z-1.00000
G1 X-40.56461 Y-77.33115 Z-1.00000
G1 X-40.58601 Y-77.21629 Z-1.00000
G1 X-40.64428 Y-77.12224 Z-1.00000
G1 X-40.73053 Y-77.05869 Z-1.00000
G1 X-40.83585 Y-77.03535 Z-1.00000
G1 X-40.99937 Y-77.01890 Z-1.00000
G1 X-41.11750 Y-76.97393 Z-1.00000
G1 X-41.18998 Y-76.90705 Z-1.00000
G1 X-41.21653 Y-76.82485 Z-1.00000
G1 X-41.19691 Y-76.73395 Z-1.00000
G1 X-41.13083 Y-76.64093 Z-1.00000
G1 X-41.01805 Y-76.55240 Z-1.00000
G1 X-40.85829 Y-76.47495 Z-1.00000
G1 X-40.67023 Y-76.37745 Z-1.00000
G1 X-40.51443 Y-76.24741 Z-1.00000
G1 X-40.40710 Y-76.10183 Z-1.00000
G1 X-40.37667 Y-76.02850 Z-1.00000
G1 X-40.36444 Y-75.95766 Z-1.00000
G1 X-40.35078 Y-75.81467 Z-1.00000
G1 X-40.33784 Y-75.78361 Z-1.00000
G0 X-40.33784 Y-75.78361 Z+5.08000
G0 X-37.96806 Y-92.17381 Z+5.08000
G1 X-37.96806 Y-92.17381 Z-1.00000 F762.0
G1 X-37.92932 Y-92.18826 Z-1.00000 F3810.0
G1 X-37.85623 Y-92.26225 Z-1.00000
G1 X-37.79638 Y-92.37774 Z-1.00000
G1 X-37.75594 Y-92.51891 Z-1.00000
G1 X-37.74109 Y-92.66995 Z-1.00000
G1 X-37.75594 Y-92.81181 Z-1.00000
G1 X-37.79638 Y-92.92799 Z-1.00000
G1 X-37.85623 Y-93.00648 Z-1.00000
G1 X-37.92932 Y-93.03531 Z-1.00000
G1 X-37.96713 Y-93.02548 Z-1.00000
G1 X-38.00241 Y-92.99730 Z-1.00000
G1 X-38.06226 Y-92.89381 Z-1.00000
G1 X-38.10270 Y-92.74065 Z-1.00000
G1 X-38.11755 Y-92.55361 Z-1.00000
G1 X-38.10316 Y-92.37199 Z-1.00000
G1 X-38.06347 Y-92.24374 Z-1.00000
G1 X-38.00377 Y-92.17908 Z-1.00000
G1 X-37.96806 Y-92.17381 Z-1.00000
G0 X-37.96806 Y-92.17381 Z+5.08000
G0 X-38.64289 Y-91.68664 Z+5.08000
G1 X-38.64289 Y-91.68664 Z-1.00000 F762.0
G1 X-38.68579 Y-91.71985 Z-1.00000 F3810.0
G1 X-38.80536 Y-91.76836 Z-1.00000
G1 X-38.95021 Y-91.78989 Z-1.00000
G1 X-39.10575 Y-91.78767 Z-1.00000
G1 X-39.25733 Y-91.76494 Z-1.00000
G1 X-39.39034 Y-91.72491 Z-1.00000
G1 X-39.49015 Y-91.67080 Z-1.00000
G1 X-39.54214 Y-91.60585 Z-1.00000
G1 X-39.54564 Y-91.57031 Z-1.00000
G1 X-39.53169 Y-91.53328 Z-1.00000
G1 X-39.45886 Y-91.48573 Z-1.00000
G1 X-39.32525 Y-91.46093 Z-1.00000
G1 X-39.14989 Y-91.46043 Z-1.00000
G1 X-38.95179 Y-91.48581 Z-1.00000
G1 X-38.75748 Y-91.53516 Z-1.00000
G1 X-38.64692 Y-91.59188 Z-1.00000
G1 X-38.62374 Y-91.62242 Z-1.00000
G1 X-38.62230 Y-91.65408 Z-1.00000
G1 X-38.64289 Y-91.68664 Z-1.00000
G0 X-38.64289 Y-91.68664 Z+5.08000
G0 X-38.55798 Y-94.42867 Z+5.08000
G1 X-38.55798 Y-94.42867 Z-1.00000 F762.0
G1 X-38.53966 Y-94.54399 Z-1.00000 F3810.0
G1 X-38.52223 Y-94.85715 Z-1.00000
G1 X-38.48988 Y-95.11087 Z-1.00000
G1 X-38.42265 Y-95.35938 Z-1.00000
G1 X-38.33037 Y-95.57414 Z-1.00000
G1 X-38.22285 Y-95.72665 Z-1.00000
G1 X-38.11914 Y-95.86942 Z-1.00000
G1 X-38.05666 Y-96.04294 Z-1.00000
G1 X-38.03804 Y-96.23531 Z-1.00000
G1 X-38.06592 Y-96.43466 Z-1.00000
G1 X-38.14333 Y-96.66663 Z-1.00000
G1 X-38.18990 Y-96.71366 Z-1.00000
G1 X-38.25245 Y-96.71042 Z-1.00000
G1 X-38.33900 Y-96.65366 Z-1.00000
G1 X-38.45763 Y-96.54014 Z-1.00000
G1 X-38.82322 Y-96.12988 Z-1.00000
G1 X-39.16196 Y-95.72562 Z-1.00000
G1 X-39.25727 Y-95.59211 Z-1.00000
G1 X-39.30631 Y-95.49498 Z-1.00000
G1 X-39.31136 Y-95.42719 Z-1.00000
G1 X-39.27473 Y-95.38172 Z-1.00000
G1 X-39.19872 Y-95.35153 Z-1.00000
G1 X-39.08566 Y-95.32959 Z-1.00000
G1 X-38.99690 Y-95.30787 Z-1.00000
G1 X-38.91664 Y-95.27157 Z-1.00000
G1 X-38.84514 Y-95.22099 Z-1.00000
G1 X-38.78264 Y-95.15646 Z-1.00000
G1 X-38.68566 Y-94.98673 Z-1.00000
G1 X-38.62773 Y-94.76488 Z-1.00000
G1 X-38.58480 Y-94.50452 Z-1.00000
G1 X-38.55798 Y-94.42867 Z-1.00000
G0 X-38.55798 Y-94.42867 Z+5.08000
G0 X-40.57517 Y-93.88529 Z+5.08000
G1 X-40.57517 Y-93.88529 Z-1.00000 F762.0
G1 X-40.60660 Y-93.93579 Z-1.00000 F3810.0
G1 X-40.65852 Y-93.95995 Z-1.00000
G1 X-40.73056 Y-93.95784 Z-1.00000
G1 X-40.82233 Y-93.92954 Z-1.00000
G1 X-40.93348 Y-93.87511 Z-1.00000
G1 X-41.21235 Y-93.68815 Z-1.00000
G1 X-41.32633 Y-93.59180 Z-1.00000
G1 X-41.39037 Y-93.51492 Z-1.00000
G1 X-41.40691 Y-93.45866 Z-1.00000
G1 X-41.37838 Y-93.42415 Z-1.00000
G1 X-41.30722 Y-93.41249 Z-1.00000
G1 X-41.19587 Y-93.42484 Z-1.00000
G1 X-40.86235 Y-93.52604 Z-1.00000
G1 X-40.74675 Y-93.58366 Z-1.00000
G1 X-40.65207 Y-93.65611 Z-1.00000
G1 X-40.58810 Y-93.73411 Z-1.00000
G1 X-40.56461 Y-93.80839 Z-1.00000
G1 X-40.57517 Y-93.88529 Z-1.00000
G0 X-40.57517 Y-93.88529 Z+5.08000
G0 X-32.59474 Y-153.00262 Z+5.08000
G1 X-32.59474 Y-153.00262 Z-1.00000 F762.0
G1 X-32.40308 Y-152.97807 Z-1.00000 F3810.0
G1 X-32.34031 Y-152.98199 Z-1.00000
G1 X-32.30416 Y-152.99759 Z-1.00000
G1 X-32.28520 Y-153.05222 Z-1.00000
G1 X-32.31127 Y-153.12326 Z-1.00000
G1 X-32.37674 Y-153.20152 Z-1.00000
G1 X-32.47596 Y-153.27782 Z-1.00000
G1 X-32.62804 Y-153.34499 Z-1.00000
G1 X-32.83740 Y-153.39844 Z-1.00000
G1 X-33.07645 Y-153.43275 Z-1.00000
G1 X-33.31757 Y-153.44255 Z-1.00000
G1 X-33.62531 Y-153.43163 Z-1.00000
G1 X-33.69621 Y-153.41907 Z-1.00000
G1 X-33.70930 Y-153.39767 Z-1.00000
G1 X-33.66269 Y-153.36438 Z-1.00000
G1 X-33.55449 Y-153.31612 Z-1.00000
G1 X-33.14577 Y-153.16232 Z-1.00000
G1 X-32.85150 Y-153.06586 Z-1.00000
G1 X-32.59474 Y-153.00262 Z-1.00000
G0 X-32.59474 Y-153.00262 Z+5.08000
G0 X-28.81698 Y-172.66962 Z+5.08000
G1 X-28.81698 Y-172.66962 Z-1.00000 F762.0
G1 X-28.78885 Y-172.66531 Z-1.00000 F3810.0
G1 X-28.68293 Y-172.68913 Z-1.00000
G1 X-28.52550 Y-172.74905 Z-1.00000
G1 X-28.14111 Y-172.94099 Z-1.00000
G1 X-27.97353 Y-173.04890 Z-1.00000
G1 X-27.88324 Y-173.13420 Z-1.00000
G1 X-27.86851 Y-173.16632 Z-1.00000
G1 X-27.87482 Y-173.19032 Z-1.00000
G1 X-27.95287 Y-173.21069 Z-1.00000
G1 X-28.09134 Y-173.18915 Z-1.00000
G1 X-28.25962 Y-173.12999 Z-1.00000
G1 X-28.43646 Y-173.04227 Z-1.00000
G1 X-28.60061 Y-172.93501 Z-1.00000
G1 X-28.72851 Y-172.82823 Z-1.00000
G1 X-28.80663 Y-172.74179 Z-1.00000
G1 X-28.82880 Y-172.68454 Z-1.00000
G1 X-28.81698 Y-172.66962 Z-1.00000
G0 X-28.81698 Y-172.66962 Z+5.08000
G0 X-26.17126 Y-173.80339 Z+5.08000
G1 X-26.17126 Y-173.80339 Z-1.00000 F762.0
G1 X-26.13741 Y-173.78806 Z-1.00000 F3810.0
G1 X-25.98044 Y-173.78806 Z-1.00000
G1 X-20.19303 Y-176.28622 Z-1.00000
G1 X-17.69407 Y-177.16833 Z-1.00000
G1 X-18.16466 Y-177.16785 Z-1.00000
G1 X-18.43650 Y-177.12984 Z-1.00000
G1 X-18.82878 Y-177.02672 Z-1.00000
G1 X-19.28900 Y-176.87424 Z-1.00000
G1 X-19.76466 Y-176.68813 Z-1.00000
G1 X-21.10679 Y-176.13646 Z-1.00000
G1 X-21.59210 Y-175.95544 Z-1.00000
G1 X-21.97077 Y-175.83270 Z-1.00000
G1 X-22.25570 Y-175.76453 Z-1.00000
G1 X-22.45980 Y-175.74718 Z-1.00000
G1 X-22.59596 Y-175.77698 Z-1.00000
G1 X-22.64259 Y-175.80840 Z-1.00000
G1 X-22.67708 Y-175.85019 Z-1.00000
G1 X-22.72503 Y-175.90318 Z-1.00000
G1 X-22.79174 Y-175.93369 Z-1.00000
G1 X-22.88014 Y-175.94104 Z-1.00000
G1 X-22.99316 Y-175.92459 Z-1.00000
G1 X-23.30482 Y-175.81763 Z-1.00000
G1 X-23.75021 Y-175.60745 Z-1.00000
G1 X-24.12839 Y-175.39600 Z-1.00000
G1 X-24.55285 Y-175.12733 Z-1.00000
G1 X-24.98906 Y-174.82779 Z-1.00000
G1 X-25.40246 Y-174.52367 Z-1.00000
G1 X-25.75854 Y-174.24132 Z-1.00000
G1 X-26.02275 Y-174.00705 Z-1.00000
G1 X-26.16055 Y-173.84720 Z-1.00000
G1 X-26.17126 Y-173.80339 Z-1.00000
G0 X-26.17126 Y-173.80339 Z+5.08000
G0 X-22.22728 Y-137.43811 Z+5.08000
G1 X-22.22728 Y-137.43811 Z-1.00000 F762.0
G1 X-22.03843 Y-137.45872 Z-1.00000 F3810.0
G1 X-21.98215 Y-137.44702 Z-1.00000
G1 X-21.92467 Y-137.41347 Z-1.00000
G1 X-21.81257 Y-137.29021 Z-1.00000
G1 X-21.71506 Y-137.10779 Z-1.00000
G1 X-21.64503 Y-136.88503 Z-1.00000
G1 X-21.57282 Y-136.61925 Z-1.00000
G1 X-21.53502 Y-136.53284 Z-1.00000
G1 X-21.49434 Y-136.47565 Z-1.00000
G1 X-21.44946 Y-136.44635 Z-1.00000
G1 X-21.39909 Y-136.44360 Z-1.00000
G1 X-21.34191 Y-136.46611 Z-1.00000
G1 X-21.27660 Y-136.51253 Z-1.00000
G1 X-21.15572 Y-136.58673 Z-1.00000
G1 X-21.10597 Y-136.59290 Z-1.00000
G1 X-21.06188 Y-136.57751 Z-1.00000
G1 X-21.02231 Y-136.53986 Z-1.00000
G1 X-20.98616 Y-136.47923 Z-1.00000
G1 X-20.91963 Y-136.28622 Z-1.00000
G1 X-20.82295 Y-135.85008 Z-1.00000
G1 X-20.81185 Y-135.70229 Z-1.00000
G1 X-20.82721 Y-135.59656 Z-1.00000
G1 X-20.87022 Y-135.52928 Z-1.00000
G1 X-20.94213 Y-135.49686 Z-1.00000
G1 X-21.04412 Y-135.49567 Z-1.00000
G1 X-21.17744 Y-135.52211 Z-1.00000
G1 X-21.23872 Y-135.55127 Z-1.00000
G1 X-21.31061 Y-135.60760 Z-1.00000
G1 X-21.47819 Y-135.78851 Z-1.00000
G1 X-21.66409 Y-136.03825 Z-1.00000
G1 X-21.85225 Y-136.33022 Z-1.00000
G1 X-22.02657 Y-136.63782 Z-1.00000
G1 X-22.17100 Y-136.93446 Z-1.00000
G1 X-22.26944 Y-137.19357 Z-1.00000
G1 X-22.30583 Y-137.38855 Z-1.00000
G1 X-22.28473 Y-137.41580 Z-1.00000
G1 X-22.22728 Y-137.43811 Z-1.00000
G0 X-22.22728 Y-137.43811 Z+5.08000
G0 X-25.50801 Y-134.18323 Z+5.08000
G1 X-25.50801 Y-134.18323 Z-1.00000 F762.0
G1 X-25.48869 Y-134.16345 Z-1.00000 F3810.0
G1 X-25.46185 Y-134.02109 Z-1.00000
G1 X-25.45263 Y-133.76227 Z-1.00000
G1 X-25.46323 Y-133.41168 Z-1.00000
G1 X-25.51476 Y-132.47050 Z-1.00000
G1 X-25.59994 Y-125.85539 Z-1.00000
G1 X-25.27053 Y-125.52599 Z-1.00000
G1 X-25.18783 Y-125.42869 Z-1.00000
G1 X-25.11834 Y-125.31390 Z-1.00000
G1 X-25.06139 Y-125.17869 Z-1.00000
G1 X-25.01629 Y-125.02013 Z-1.00000
G1 X-24.95901 Y-124.62132 Z-1.00000
G1 X-24.94112 Y-124.09406 Z-1.00000
G1 X-24.92326 Y-123.60619 Z-1.00000
G1 X-24.87105 Y-123.20807 Z-1.00000
G1 X-24.78648 Y-122.90992 Z-1.00000
G1 X-24.73269 Y-122.80154 Z-1.00000
G1 X-24.67156 Y-122.72199 Z-1.00000
G1 X-24.61287 Y-122.64330 Z-1.00000
G1 X-24.54931 Y-122.52242 Z-1.00000
G1 X-24.41569 Y-122.17832 Z-1.00000
G1 X-24.28687 Y-121.73798 Z-1.00000
G1 X-24.17901 Y-121.24973 Z-1.00000
G1 X-24.07208 Y-120.73075 Z-1.00000
G1 X-23.94580 Y-120.20678 Z-1.00000
G1 X-23.81593 Y-119.73890 Z-1.00000
G1 X-23.69824 Y-119.38819 Z-1.00000
G1 X-23.58249 Y-119.02841 Z-1.00000
G1 X-23.45789 Y-118.53584 Z-1.00000
G1 X-23.33940 Y-117.97533 Z-1.00000
G1 X-23.24199 Y-117.41172 Z-1.00000
G1 X-23.04351 Y-116.09408 Z-1.00000
G1 X-21.73098 Y-110.55902 Z-1.00000
G1 X-20.77301 Y-107.99998 Z-1.00000
G1 X-19.37486 Y-105.17646 Z-1.00000
G1 X-18.08404 Y-102.62940 Z-1.00000
G1 X-16.94392 Y-100.47059 Z-1.00000
G1 X-15.91113 Y-98.58824 Z-1.00000
G1 X-15.90848 Y-98.25077 Z-1.00000
G1 X-15.85492 Y-98.02242 Z-1.00000
G1 X-15.71102 Y-97.65016 Z-1.00000
G1 X-15.49873 Y-97.18553 Z-1.00000
G1 X-15.23998 Y-96.68006 Z-1.00000
G1 X-14.97637 Y-96.15234 Z-1.00000
G1 X-14.78833 Y-95.69279 Z-1.00000
G1 X-14.68690 Y-95.33268 Z-1.00000
G1 X-14.67212 Y-95.19970 Z-1.00000
G1 X-14.68314 Y-95.10331 Z-1.00000
G1 X-14.70952 Y-94.94195 Z-1.00000
G1 X-14.69956 Y-94.87362 Z-1.00000
G1 X-14.67382 Y-94.81293 Z-1.00000
G1 X-14.63204 Y-94.75945 Z-1.00000
G1 X-14.57395 Y-94.71273 Z-1.00000
G1 X-14.40783 Y-94.63780 Z-1.00000
G1 X-14.27354 Y-94.58530 Z-1.00000
G1 X-14.16720 Y-94.52332 Z-1.00000
G1 X-14.08986 Y-94.45438 Z-1.00000
G1 X-14.04259 Y-94.38098 Z-1.00000
G1 X-14.02647 Y-94.30563 Z-1.00000
G1 X-14.04256 Y-94.23083 Z-1.00000
G1 X-14.09192 Y-94.15910 Z-1.00000
G1 X-14.17563 Y-94.09291 Z-1.00000
G1 X-14.22042 Y-94.07834 Z-1.00000
G1 X-14.27723 Y-94.08188 Z-1.00000
G1 X-14.42430 Y-94.14093 Z-1.00000
G1 X-14.61159 Y-94.26534 Z-1.00000
G1 X-14.83382 Y-94.45038 Z-1.00000
G1 X-15.08573 Y-94.69132 Z-1.00000
G1 X-15.36207 Y-94.98344 Z-1.00000
G1 X-15.65756 Y-95.32200 Z-1.00000
G1 X-15.96694 Y-95.70228 Z-1.00000
G1 X-16.45039 Y-96.35532 Z-1.00000
G1 X-16.57972 Y-96.56477 Z-1.00000
G1 X-16.63336 Y-96.69204 Z-1.00000
G1 X-16.63162 Y-96.72390 Z-1.00000
G1 X-16.61074 Y-96.73405 Z-1.00000
G1 X-16.51130 Y-96.68771 Z-1.00000
G1 X-16.33448 Y-96.54991 Z-1.00000
G1 X-16.07971 Y-96.31758 Z-1.00000
G1 X-15.74708 Y-96.00661 Z-1.00000
G1 X-15.64928 Y-95.92890 Z-1.00000
G1 X-15.59026 Y-95.90307 Z-1.00000
G1 X-15.56486 Y-95.92912 Z-1.00000
G1 X-15.56790 Y-96.00706 Z-1.00000
G1 X-15.63864 Y-96.31868 Z-1.00000
G1 X-15.75540 Y-96.65200 Z-1.00000
G1 X-15.97128 Y-97.15005 Z-1.00000
G1 X-16.25549 Y-97.74550 Z-1.00000
G1 X-16.57723 Y-98.37099 Z-1.00000
G1 X-17.37782 Y-99.86933 Z-1.00000
G1 X-17.29095 Y-100.09570 Z-1.00000
G1 X-17.28314 Y-100.15100 Z-1.00000
G1 X-17.29179 Y-100.22856 Z-1.00000
G1 X-17.35227 Y-100.43850 Z-1.00000
G1 X-17.45994 Y-100.70158 Z-1.00000
G1 X-17.60233 Y-100.99387 Z-1.00000
G1 X-17.76699 Y-101.29144 Z-1.00000
G1 X-17.94145 Y-101.57036 Z-1.00000
G1 X-18.11326 Y-101.80667 Z-1.00000
G1 X-18.26997 Y-101.97646 Z-1.00000
G1 X-18.43887 Y-102.17397 Z-1.00000
G1 X-18.64679 Y-102.48576 Z-1.00000
G1 X-18.87157 Y-102.86849 Z-1.00000
G1 X-19.09104 Y-103.27884 Z-1.00000
G1 X-19.28306 Y-103.67345 Z-1.00000
G1 X-19.42547 Y-104.00897 Z-1.00000
G1 X-19.49610 Y-104.24207 Z-1.00000
G1 X-19.49758 Y-104.30666 Z-1.00000
G1 X-19.47281 Y-104.32940 Z-1.00000
G1 X-19.40411 Y-104.34450 Z-1.00000
G1 X-19.36561 Y-104.38560 Z-1.00000
G1 X-19.36003 Y-104.44643 Z-1.00000
G1 X-19.39009 Y-104.52071 Z-1.00000
G1 X-19.44938 Y-104.58671 Z-1.00000
G1 X-19.52344 Y-104.62501 Z-1.00000
G1 X-19.60280 Y-104.63276 Z-1.00000
G1 X-19.67803 Y-104.60712 Z-1.00000
G1 X-19.71461 Y-104.59678 Z-1.00000
G1 X-19.75357 Y-104.60786 Z-1.00000
G1 X-19.83379 Y-104.68737 Z-1.00000
G1 X-19.90911 Y-104.83188 Z-1.00000
G1 X-19.96995 Y-105.02758 Z-1.00000
G1 X-20.03498 Y-105.24641 Z-1.00000
G1 X-20.12168 Y-105.45390 Z-1.00000
G1 X-20.21874 Y-105.62663 Z-1.00000
G1 X-20.31485 Y-105.74117 Z-1.00000
G1 X-20.43672 Y-105.91080 Z-1.00000
G1 X-20.60393 Y-106.23351 Z-1.00000
G1 X-20.79444 Y-106.66300 Z-1.00000
G1 X-20.98623 Y-107.15292 Z-1.00000
G1 X-21.34013 Y-108.04469 Z-1.00000
G1 X-21.47657 Y-108.33748 Z-1.00000
G1 X-21.56088 Y-108.47057 Z-1.00000
G1 X-21.62037 Y-108.56652 Z-1.00000
G1 X-21.68925 Y-108.75822 Z-1.00000
G1 X-21.75898 Y-109.01785 Z-1.00000
G1 X-21.82103 Y-109.31763 Z-1.00000
G1 X-21.95523 Y-110.07056 Z-1.00000
G1 X-23.26221 Y-115.15290 Z-1.00000
G1 X-23.53279 Y-115.99996 Z-1.00000
G1 X-23.64737 Y-116.39570 Z-1.00000
G1 X-23.75933 Y-116.84702 Z-1.00000
G1 X-23.85582 Y-117.29834 Z-1.00000
G1 X-23.92402 Y-117.69408 Z-1.00000
G1 X-23.98906 Y-118.03783 Z-1.00000
G1 X-24.07696 Y-118.34760 Z-1.00000
G1 X-24.17620 Y-118.58944 Z-1.00000
G1 X-24.22647 Y-118.67426 Z-1.00000
G1 X-24.27525 Y-118.72936 Z-1.00000
G1 X-24.37528 Y-118.85857 Z-1.00000
G1 X-24.47718 Y-119.07120 Z-1.00000
G1 X-24.56902 Y-119.33775 Z-1.00000
G1 X-24.63887 Y-119.62872 Z-1.00000
G1 X-24.70634 Y-119.90333 Z-1.00000
G1 X-24.78846 Y-120.10390 Z-1.00000
G1 X-24.83240 Y-120.17164 Z-1.00000
G1 X-24.87686 Y-120.21511 Z-1.00000
G1 X-24.92080 Y-120.23241 Z-1.00000
G1 X-24.96315 Y-120.22163 Z-1.00000
G1 X-25.00714 Y-120.20499 Z-1.00000
G1 X-25.05893 Y-120.20321 Z-1.00000
G1 X-25.17833 Y-120.24045 Z-1.00000
G1 X-25.30613 Y-120.32579 Z-1.00000
G1 X-25.42711 Y-120.45169 Z-1.00000
G1 X-25.57468 Y-120.63173 Z-1.00000
G1 X-25.61801 Y-120.67175 Z-1.00000
G1 X-25.64313 Y-120.67680 Z-1.00000
G1 X-25.65159 Y-120.64569 Z-1.00000
G1 X-25.64496 Y-120.57719 Z-1.00000
G1 X-25.59269 Y-120.32321 Z-1.00000
G1 X-25.56506 Y-120.07589 Z-1.00000
G1 X-25.56905 Y-119.75491 Z-1.00000
G1 X-25.60236 Y-119.40178 Z-1.00000
G1 X-25.66269 Y-119.05802 Z-1.00000
G1 X-25.70132 Y-118.83820 Z-1.00000
G1 X-25.72621 Y-118.58245 Z-1.00000
G1 X-25.73454 Y-117.95582 Z-1.00000
G1 X-25.68728 Y-117.16358 Z-1.00000
G1 X-25.58404 Y-116.19117 Z-1.00000
G1 X-25.32824 Y-114.11277 Z-1.00000
G1 X-25.10650 Y-113.69166 Z-1.00000
G1 X-24.91371 Y-113.36661 Z-1.00000
G1 X-24.82691 Y-113.24621 Z-1.00000
G1 X-24.76159 Y-113.17644 Z-1.00000
G1 X-24.66457 Y-113.06310 Z-1.00000
G1 X-24.53523 Y-112.85704 Z-1.00000
G1 X-24.22691 Y-112.26536 Z-1.00000
G1 X-23.93124 Y-111.59856 Z-1.00000
G1 X-23.81771 Y-111.29860 Z-1.00000
G1 X-23.74284 Y-111.05379 Z-1.00000
G1 X-23.63427 Y-110.68793 Z-1.00000
G1 X-23.48306 Y-110.27884 Z-1.00000
G1 X-23.30252 Y-109.85324 Z-1.00000
G1 X-23.10597 Y-109.43784 Z-1.00000
G1 X-22.90673 Y-109.05936 Z-1.00000
G1 X-22.71811 Y-108.74450 Z-1.00000
G1 X-22.55344 Y-108.51997 Z-1.00000
G1 X-22.48424 Y-108.44994 Z-1.00000
G1 X-22.42603 Y-108.41251 Z-1.00000
G1 X-22.16079 Y-108.31072 Z-1.00000
G1 X-19.85878 Y-103.73099 Z-1.00000
G1 X-19.85878 Y-103.37138 Z-1.00000
G1 X-19.87131 Y-103.19035 Z-1.00000
G1 X-19.90656 Y-103.07563 Z-1.00000
G1 X-19.96099 Y-103.02528 Z-1.00000
G1 X-20.03111 Y-103.03732 Z-1.00000
G1 X-20.11337 Y-103.10982 Z-1.00000
G1 X-20.20425 Y-103.24081 Z-1.00000
G1 X-20.30024 Y-103.42834 Z-1.00000
G1 X-20.39780 Y-103.67046 Z-1.00000
G1 X-20.51904 Y-103.94160 Z-1.00000
G1 X-20.67305 Y-104.19293 Z-1.00000
G1 X-20.84007 Y-104.39645 Z-1.00000
G1 X-20.92228 Y-104.47152 Z-1.00000
G1 X-21.00032 Y-104.52413 Z-1.00000
G1 X-21.14542 Y-104.63686 Z-1.00000
G1 X-21.26087 Y-104.79575 Z-1.00000
G1 X-21.33712 Y-104.98357 Z-1.00000
G1 X-21.36465 Y-105.18308 Z-1.00000
G1 X-21.37921 Y-105.36323 Z-1.00000
G1 X-21.41882 Y-105.51076 Z-1.00000
G1 X-21.47746 Y-105.61044 Z-1.00000
G1 X-21.51202 Y-105.63757 Z-1.00000
G1 X-21.54906 Y-105.64704 Z-1.00000
G1 X-21.59377 Y-105.66206 Z-1.00000
G1 X-21.65028 Y-105.70509 Z-1.00000
G1 X-21.78954 Y-105.86312 Z-1.00000
G1 X-21.94848 Y-106.09701 Z-1.00000
G1 X-22.10873 Y-106.38262 Z-1.00000
G1 X-22.26598 Y-106.67332 Z-1.00000
G1 X-22.41671 Y-106.92104 Z-1.00000
G1 X-22.54383 Y-107.09956 Z-1.00000
G1 X-22.63021 Y-107.18262 Z-1.00000
G1 X-22.73229 Y-107.29214 Z-1.00000
G1 X-22.88376 Y-107.53600 Z-1.00000
G1 X-23.27555 Y-108.30176 Z-1.00000
G1 X-23.68705 Y-109.22994 Z-1.00000
G1 X-23.86313 Y-109.67682 Z-1.00000
G1 X-23.99970 Y-110.07056 Z-1.00000
G1 X-24.11212 Y-110.38676 Z-1.00000
G1 X-24.24371 Y-110.69109 Z-1.00000
G1 X-24.37808 Y-110.94894 Z-1.00000
G1 X-24.49885 Y-111.12568 Z-1.00000
G1 X-24.60750 Y-111.26930 Z-1.00000
G1 X-24.72476 Y-111.45815 Z-1.00000
G1 X-24.97654 Y-111.94752 Z-1.00000
G1 X-25.23699 Y-112.54587 Z-1.00000
G1 X-25.48890 Y-113.20527 Z-1.00000
G1 X-25.71507 Y-113.87778 Z-1.00000
G1 X-25.89829 Y-114.51548 Z-1.00000
G1 X-26.02136 Y-115.07043 Z-1.00000
G1 X-26.05497 Y-115.30189 Z-1.00000
G1 X-26.06708 Y-115.49469 Z-1.00000
G1 X-26.08501 Y-115.87767 Z-1.00000
G1 X-26.13129 Y-116.25033 Z-1.00000
G1 X-26.19890 Y-116.57002 Z-1.00000
G1 X-26.28082 Y-116.79413 Z-1.00000
G1 X-26.49112 Y-117.18707 Z-1.00000
G1 X-26.67529 Y-121.51442 Z-1.00000
G1 X-26.07366 Y-121.28355 Z-1.00000
G1 X-26.16464 Y-131.15286 Z-1.00000
G1 X-25.90738 Y-132.56462 Z-1.00000
G1 X-25.69067 Y-133.61697 Z-1.00000
G1 X-25.59749 Y-133.98013 Z-1.00000
G1 X-25.53091 Y-134.16463 Z-1.00000
G1 X-25.50801 Y-134.18323 Z-1.00000
G0 X-25.50801 Y-134.18323 Z+5.08000
G0 X-20.36210 Y-127.27267 Z+5.08000
G1 X-20.36210 Y-127.27267 Z-1.00000 F762.0
G1 X-20.30142 Y-127.29405 Z-1.00000 F3810.0
G1 X-20.20254 Y-127.27548 Z-1.00000
G1 X-20.12138 Y-127.22494 Z-1.00000
G1 X-20.06632 Y-127.15012 Z-1.00000
G1 X-20.04577 Y-127.05875 Z-1.00000
G1 X-20.10647 Y-126.40983 Z-1.00000
G1 X-20.25658 Y-125.24043 Z-1.00000
G1 X-20.44398 Y-123.93314 Z-1.00000
G1 X-20.61651 Y-122.87053 Z-1.00000
G1 X-20.80445 Y-121.66544 Z-1.00000
G1 X-21.01610 Y-120.08975 Z-1.00000
G1 X-21.24462 Y-118.25014 Z-1.00000
G1 X-21.44581 Y-118.32101 Z-1.00000
G1 X-21.47844 Y-118.34911 Z-1.00000
G1 X-21.50655 Y-118.40770 Z-1.00000
G1 X-21.54971 Y-118.60970 Z-1.00000
G1 X-21.57628 Y-118.91376 Z-1.00000
G1 X-21.58727 Y-119.30662 Z-1.00000
G1 X-21.56641 Y-120.30563 Z-1.00000
G1 X-21.49506 Y-121.50060 Z-1.00000
G1 X-21.38116 Y-122.78541 Z-1.00000
G1 X-21.23263 Y-124.05392 Z-1.00000
G1 X-21.05740 Y-125.20003 Z-1.00000
G1 X-20.96225 Y-125.69401 Z-1.00000
G1 X-20.86340 Y-126.11758 Z-1.00000
G1 X-20.71878 Y-126.60142 Z-1.00000
G1 X-20.57036 Y-126.97250 Z-1.00000
G1 X-20.49780 Y-127.10931 Z-1.00000
G1 X-20.42797 Y-127.21024 Z-1.00000
G1 X-20.36210 Y-127.27267 Z-1.00000
G0 X-20.36210 Y-127.27267 Z+5.08000
G0 X-17.36409 Y-127.25536 Z+5.08000
G1 X-17.36409 Y-127.25536 Z-1.00000 F762.0
G1 X-17.36740 Y-127.47796 Z-1.00000 F3810.0
G1 X-17.33481 Y-127.62037 Z-1.00000
G1 X-17.30535 Y-127.65773 Z-1.00000
G1 X-17.26727 Y-127.67052 Z-1.00000
G1 X-17.21432 Y-127.65839 Z-1.00000
G1 X-17.15955 Y-127.62370 Z-1.00000
G1 X-17.04835 Y-127.49715 Z-1.00000
G1 X-16.94135 Y-127.31171 Z-1.00000
G1 X-16.84621 Y-127.08822 Z-1.00000
G1 X-16.77060 Y-126.84753 Z-1.00000
G1 X-16.72219 Y-126.61047 Z-1.00000
G1 X-16.70864 Y-126.39790 Z-1.00000
G1 X-16.73763 Y-126.23067 Z-1.00000
G1 X-16.80517 Y-126.10024 Z-1.00000
G1 X-16.87889 Y-126.03899 Z-1.00000
G1 X-16.91737 Y-126.03342 Z-1.00000
G1 X-16.95653 Y-126.04407 Z-1.00000
G1 X-17.03582 Y-126.11261 Z-1.00000
G1 X-17.11447 Y-126.24179 Z-1.00000
G1 X-17.19022 Y-126.42875 Z-1.00000
G1 X-17.26079 Y-126.67065 Z-1.00000
G1 X-17.32391 Y-126.96464 Z-1.00000
G1 X-17.36409 Y-127.25536 Z-1.00000
G0 X-17.36409 Y-127.25536 Z+5.08000
G0 X-15.23502 Y-124.81938 Z+5.08000
G1 X-15.23502 Y-124.81938 Z-1.00000 F762.0
G1 X-15.18489 Y-124.84029 Z-1.00000 F3810.0
G1 X-15.12046 Y-124.84700 Z-1.00000
G1 X-15.06044 Y-124.83568 Z-1.00000
G1 X-14.99915 Y-124.80338 Z-1.00000
G1 X-14.87685 Y-124.68578 Z-1.00000
G1 X-14.76176 Y-124.51408 Z-1.00000
G1 X-14.66209 Y-124.30817 Z-1.00000
G1 X-14.58603 Y-124.08793 Z-1.00000
G1 X-14.54178 Y-123.87325 Z-1.00000
G1 X-14.53755 Y-123.68403 Z-1.00000
G1 X-14.55301 Y-123.60517 Z-1.00000
G1 X-14.58154 Y-123.54013 Z-1.00000
G1 X-14.65381 Y-123.46339 Z-1.00000
G1 X-14.73606 Y-123.44465 Z-1.00000
G1 X-14.82495 Y-123.48000 Z-1.00000
G1 X-14.91715 Y-123.56549 Z-1.00000
G1 X-15.00932 Y-123.69721 Z-1.00000
G1 X-15.09813 Y-123.87123 Z-1.00000
G1 X-15.18023 Y-124.08360 Z-1.00000
G1 X-15.25229 Y-124.33041 Z-1.00000
G1 X-15.29856 Y-124.57043 Z-1.00000
G1 X-15.29360 Y-124.73031 Z-1.00000
G1 X-15.27116 Y-124.78311 Z-1.00000
G1 X-15.23502 Y-124.81938 Z-1.00000
G0 X-15.23502 Y-124.81938 Z+5.08000
G0 X-13.79896 Y-120.19077 Z+5.08000
G1 X-13.79896 Y-120.19077 Z-1.00000 F762.0
G1 X-13.67353 Y-120.22539 Z-1.00000 F3810.0
G1 X-13.55004 Y-120.20810 Z-1.00000
G1 X-13.47279 Y-120.16167 Z-1.00000
G1 X-13.41117 Y-120.09041 Z-1.00000
G1 X-13.36452 Y-119.99814 Z-1.00000
G1 X-13.33217 Y-119.88871 Z-1.00000
G1 X-13.30776 Y-119.63374 Z-1.00000
G1 X-13.33266 Y-119.35622 Z-1.00000
G1 X-13.40160 Y-119.08689 Z-1.00000
G1 X-13.50931 Y-118.85646 Z-1.00000
G1 X-13.57605 Y-118.76544 Z-1.00000
G1 X-13.65051 Y-118.69567 Z-1.00000
G1 X-13.73203 Y-118.65099 Z-1.00000
G1 X-13.81994 Y-118.63525 Z-1.00000
G1 X-13.86451 Y-118.64646 Z-1.00000
G1 X-13.90617 Y-118.67851 Z-1.00000
G1 X-13.97941 Y-118.79568 Z-1.00000
G1 X-14.03712 Y-118.96784 Z-1.00000
G1 X-14.07674 Y-119.17605 Z-1.00000
G1 X-14.09571 Y-119.40139 Z-1.00000
G1 X-14.09147 Y-119.62494 Z-1.00000
G1 X-14.06146 Y-119.82776 Z-1.00000
G1 X-14.00313 Y-119.99094 Z-1.00000
G1 X-13.91320 Y-120.11052 Z-1.00000
G1 X-13.79896 Y-120.19077 Z-1.00000
G0 X-13.79896 Y-120.19077 Z+5.08000
G0 X-14.51766 Y-119.34276 Z+5.08000
G1 X-14.51766 Y-119.34276 Z-1.00000 F762.0
G1 X-14.47536 Y-119.29215 Z-1.00000 F3810.0
G1 X-14.44391 Y-119.22224 Z-1.00000
G1 X-14.41316 Y-119.02833 Z-1.00000
G1 X-14.42457 Y-118.76861 Z-1.00000
G1 X-14.47730 Y-118.45067 Z-1.00000
G1 X-14.57050 Y-118.08211 Z-1.00000
G1 X-14.70332 Y-117.67051 Z-1.00000
G1 X-14.87494 Y-117.22349 Z-1.00000
G1 X-15.03561 Y-116.76873 Z-1.00000
G1 X-15.17044 Y-116.22993 Z-1.00000
G1 X-15.28233 Y-115.57626 Z-1.00000
G1 X-15.37418 Y-114.77689 Z-1.00000
G1 X-15.44886 Y-113.80099 Z-1.00000
G1 X-15.50928 Y-112.61774 Z-1.00000
G1 X-15.55832 Y-111.19630 Z-1.00000
G1 X-15.59888 Y-109.50586 Z-1.00000
G1 X-15.61988 Y-108.75586 Z-1.00000
G1 X-15.63776 Y-108.54961 Z-1.00000
G1 X-15.66649 Y-108.44704 Z-1.00000
G1 X-15.68632 Y-108.43256 Z-1.00000
G1 X-15.71054 Y-108.44152 Z-1.00000
G1 X-15.77436 Y-108.52645 Z-1.00000
G1 X-15.97914 Y-108.94115 Z-1.00000
G1 X-16.33263 Y-109.69409 Z-1.00000
G1 X-16.10453 Y-115.90585 Z-1.00000
G1 X-15.83645 Y-117.16223 Z-1.00000
G1 X-15.70483 Y-117.68785 Z-1.00000
G1 X-15.54462 Y-118.19022 Z-1.00000
G1 X-15.37609 Y-118.61242 Z-1.00000
G1 X-15.29502 Y-118.77565 Z-1.00000
G1 X-15.21946 Y-118.89749 Z-1.00000
G1 X-15.06542 Y-119.08389 Z-1.00000
G1 X-14.90393 Y-119.23743 Z-1.00000
G1 X-14.75415 Y-119.34219 Z-1.00000
G1 X-14.63526 Y-119.38227 Z-1.00000
G1 X-14.57093 Y-119.37312 Z-1.00000
G1 X-14.51766 Y-119.34276 Z-1.00000
G0 X-14.51766 Y-119.34276 Z+5.08000
G0 X-11.58110 Y-119.13251 Z+5.08000
G1 X-11.58110 Y-119.13251 Z-1.00000 F762.0
G1 X-11.57157 Y-119.41959 Z-1.00000 F3810.0
G1 X-11.53415 Y-119.71083 Z-1.00000
G1 X-11.47099 Y-119.97971 Z-1.00000
G1 X-11.38426 Y-120.19969 Z-1.00000
G1 X-11.33273 Y-120.28307 Z-1.00000
G1 X-11.27610 Y-120.34429 Z-1.00000
G1 X-11.20187 Y-120.41608 Z-1.00000
G1 X-11.14286 Y-120.49675 Z-1.00000
G1 X-11.09866 Y-120.58828 Z-1.00000
G1 X-11.06886 Y-120.69270 Z-1.00000
G1 X-11.05082 Y-120.94827 Z-1.00000
G1 X-11.08546 Y-121.27955 Z-1.00000
G1 X-11.11834 Y-121.55562 Z-1.00000
G1 X-11.12678 Y-121.80019 Z-1.00000
G1 X-11.11121 Y-121.98671 Z-1.00000
G1 X-11.07208 Y-122.08863 Z-1.00000
G1 X-11.00745 Y-122.13642 Z-1.00000
G1 X-10.92246 Y-122.17555 Z-1.00000
G1 X-10.82817 Y-122.20200 Z-1.00000
G1 X-10.73560 Y-122.21171 Z-1.00000
G1 X-10.52221 Y-122.21171 Z-1.00000
G1 X-9.43892 Y-121.16247 Z-1.00000
G1 X-8.96815 Y-120.73411 Z-1.00000
G1 X-8.48716 Y-120.34343 Z-1.00000
G1 X-8.05234 Y-120.03357 Z-1.00000
G1 X-7.86987 Y-119.92243 Z-1.00000
G1 X-7.72009 Y-119.84767 Z-1.00000
G1 X-7.46400 Y-119.72949 Z-1.00000
G1 X-7.23655 Y-119.60400 Z-1.00000
G1 X-7.06246 Y-119.48619 Z-1.00000
G1 X-6.96645 Y-119.39104 Z-1.00000
G1 X-6.89348 Y-119.31684 Z-1.00000
G1 X-6.78208 Y-119.25609 Z-1.00000
G1 X-6.64742 Y-119.21503 Z-1.00000
G1 X-6.50464 Y-119.19995 Z-1.00000
G1 X-6.42922 Y-119.19022 Z-1.00000
G1 X-6.34654 Y-119.16235 Z-1.00000
G1 X-6.17017 Y-119.05996 Z-1.00000
G1 X-5.99703 Y-118.90842 Z-1.00000
G1 X-5.84866 Y-118.72337 Z-1.00000
G1 X-5.71227 Y-118.54768 Z-1.00000
G1 X-5.57177 Y-118.42161 Z-1.00000
G1 X-5.44368 Y-118.35691 Z-1.00000
G1 X-5.38947 Y-118.35125 Z-1.00000
G1 X-5.34456 Y-118.36534 Z-1.00000
G1 X-5.24390 Y-118.38768 Z-1.00000
G1 X-5.11163 Y-118.36087 Z-1.00000
G1 X-4.96492 Y-118.29087 Z-1.00000
G1 X-4.82097 Y-118.18365 Z-1.00000
G1 X-4.72958 Y-118.11254 Z-1.00000
G1 X-4.62607 Y-118.05407 Z-1.00000
G1 X-4.50961 Y-118.00806 Z-1.00000
G1 X-4.37934 Y-117.97436 Z-1.00000
G1 X-4.07402 Y-117.94315 Z-1.00000
G1 X-3.70334 Y-117.95910 Z-1.00000
G1 X-3.29295 Y-117.97360 Z-1.00000
G1 X-3.11242 Y-117.95687 Z-1.00000
G1 X-2.94126 Y-117.92229 Z-1.00000
G1 X-2.77416 Y-117.86849 Z-1.00000
G1 X-2.60582 Y-117.79408 Z-1.00000
G1 X-2.24419 Y-117.57787 Z-1.00000
G1 X-1.49647 Y-117.11725 Z-1.00000
G1 X-0.64427 Y-116.65141 Z-1.00000
G1 X-0.28448 Y-116.45267 Z-1.00000
G1 X+0.01016 Y-116.25865 Z-1.00000
G1 X+0.20924 Y-116.09160 Z-1.00000
G1 X+0.26344 Y-116.02513 Z-1.00000
G1 X+0.28235 Y-115.97374 Z-1.00000
G1 X+0.30065 Y-115.89825 Z-1.00000
G1 X+0.32346 Y-115.88142 Z-1.00000
G1 X+0.35533 Y-115.87855 Z-1.00000
G1 X+0.44603 Y-115.91460 Z-1.00000
G1 X+0.57244 Y-116.00638 Z-1.00000
G1 X+0.72282 Y-116.10171 Z-1.00000
G1 X+0.88223 Y-116.14510 Z-1.00000
G1 X+1.05166 Y-116.13666 Z-1.00000
G1 X+1.23210 Y-116.07648 Z-1.00000
G1 X+1.43421 Y-115.98675 Z-1.00000
G1 X+1.48447 Y-115.97099 Z-1.00000
G1 X+1.50074 Y-115.97736 Z-1.00000
G1 X+1.43102 Y-116.06452 Z-1.00000
G1 X+1.22437 Y-116.26443 Z-1.00000
G1 X+1.06472 Y-116.43163 Z-1.00000
G1 X+0.94646 Y-116.58794 Z-1.00000
G1 X+0.86714 Y-116.73198 Z-1.00000
G1 X+0.82431 Y-116.86236 Z-1.00000
G1 X+0.81552 Y-116.97768 Z-1.00000
G1 X+0.83833 Y-117.07657 Z-1.00000
G1 X+0.89028 Y-117.15762 Z-1.00000
G1 X+0.96891 Y-117.21944 Z-1.00000
G1 X+1.07179 Y-117.26065 Z-1.00000
G1 X+1.19647 Y-117.27985 Z-1.00000
G1 X+1.34048 Y-117.27567 Z-1.00000
G1 X+1.50139 Y-117.24668 Z-1.00000
G1 X+1.67674 Y-117.19153 Z-1.00000
G1 X+1.86409 Y-117.10880 Z-1.00000
G1 X+2.06098 Y-116.99712 Z-1.00000
G1 X+2.26496 Y-116.85509 Z-1.00000
G1 X+2.59029 Y-116.63508 Z-1.00000
G1 X+2.73778 Y-116.56146 Z-1.00000
G1 X+2.88201 Y-116.51018 Z-1.00000
G1 X+3.02814 Y-116.47977 Z-1.00000
G1 X+3.18131 Y-116.46880 Z-1.00000
G1 X+3.52938 Y-116.49937 Z-1.00000
G1 X+3.80170 Y-116.52697 Z-1.00000
G1 X+4.03597 Y-116.51893 Z-1.00000
G1 X+4.21248 Y-116.47762 Z-1.00000
G1 X+4.27291 Y-116.44522 Z-1.00000
G1 X+4.31150 Y-116.40540 Z-1.00000
G1 X+4.38488 Y-116.33455 Z-1.00000
